app/src/main/assets/luts/cinematic.cube
# Yashora 3D LUT
TITLE "Cinematic Teal Orange"
LUT_3D_SIZE 16
DOMAIN_MIN 0.0 0.0 0.0
DOMAIN_MAX 1.0 1.0 1.0
0.000000 0.000000 0.000000
0.083333 0.000000 0.000000
0.166667 0.000000 0.000000
0.250000 0.000000 0.000000
0.333333 0.000000 0.000000
0.416667 0.000000 0.000000
0.500000 0.000000 0.000000
0.583333 0.000000 0.000000
0.666667 0.000000 0.000000
0.750000 0.000000 0.000000
0.833333 0.000000 0.000000
0.916667 0.000000 0.000000
1.000000 0.000000 0.000000
1.000000 0.000000 0.000000
1.000000 0.000000 0.000000
1.000000 0.000000 0.000000
0.000000 0.065333 0.010000
0.083333 0.065333 0.009333
0.166667 0.065333 0.008667
0.250000 0.065333 0.008000
0.333333 0.065333 0.007333
0.416667 0.065333 0.006667
0.500000 0.065333 0.006000
0.583333 0.065333 0.005333
0.666667 0.065333 0.004667
0.750000 0.065333 0.004000
0.833333 0.065333 0.003333
0.916667 0.065333 0.002667
1.000000 0.065333 0.002000
1.000000 0.065333 0.001333
1.000000 0.065333 0.000667
1.000000 0.065333 0.000000
0.000000 0.130667 0.020000
0.083333 0.130667 0.018667
0.166667 0.130667 0.017333
0.250000 0.130667 0.016000
0.333333 0.130667 0.014667
0.416667 0.130667 0.013333
0.500000 0.130667 0.012000
0.583333 0.130667 0.010667
0.666667 0.130667 0.009333
0.750000 0.130667 0.008000
0.833333 0.130667 0.006667
0.916667 0.130667 0.005333
1.000000 0.130667 0.004000
1.000000 0.130667 0.002667
1.000000 0.130667 0.001333
1.000000 0.130667 0.000000
0.000000 0.196000 0.030000
0.083333 0.196000 0.028000
0.166667 0.196000 0.026000
0.250000 0.196000 0.024000
0.333333 0.196000 0.022000
0.416667 0.196000 0.020000
0.500000 0.196000 0.018000
0.583333 0.196000 0.016000
0.666667 0.196000 0.014000
0.750000 0.196000 0.012000
0.833333 0.196000 0.010000
0.916667 0.196000 0.008000
1.000000 0.196000 0.006000
1.000000 0.196000 0.004000
1.000000 0.196000 0.002000
1.000000 0.196000 0.000000
0.000000 0.261333 0.040000
0.083333 0.261333 0.037333
0.166667 0.261333 0.034667
0.250000 0.261333 0.032000
0.333333 0.261333 0.029333
0.416667 0.261333 0.026667
0.500000 0.261333 0.024000
0.583333 0.261333 0.021333
0.666667 0.261333 0.018667
0.750000 0.261333 0.016000
0.833333 0.261333 0.013333
0.916667 0.261333 0.010667
1.000000 0.261333 0.008000
1.000000 0.261333 0.005333
1.000000 0.261333 0.002667
1.000000 0.261333 0.000000
0.000000 0.326667 0.050000
0.083333 0.326667 0.046667
0.166667 0.326667 0.043333
0.250000 0.326667 0.040000
0.333333 0.326667 0.036667
0.416667 0.326667 0.033333
0.500000 0.326667 0.030000
0.583333 0.326667 0.026667
0.666667 0.326667 0.023333
0.750000 0.326667 0.020000
0.833333 0.326667 0.016667
0.916667 0.326667 0.013333
1.000000 0.326667 0.010000
1.000000 0.326667 0.006667
1.000000 0.326667 0.003333
1.000000 0.326667 0.000000
0.000000 0.392000 0.060000
0.083333 0.392000 0.056000
0.166667 0.392000 0.052000
0.250000 0.392000 0.048000
0.333333 0.392000 0.044000
0.416667 0.392000 0.040000
0.500000 0.392000 0.036000
0.583333 0.392000 0.032000
0.666667 0.392000 0.028000
0.750000 0.392000 0.024000
0.833333 0.392000 0.020000
0.916667 0.392000 0.016000
1.000000 0.392000 0.012000
1.000000 0.392000 0.008000
1.000000 0.392000 0.004000
1.000000 0.392000 0.000000
0.000000 0.457333 0.070000
0.083333 0.457333 0.065333
0.166667 0.457333 0.060667
0.250000 0.457333 0.056000
0.333333 0.457333 0.051333
0.416667 0.457333 0.046667
0.500000 0.457333 0.042000
0.583333 0.457333 0.037333
0.666667 0.457333 0.032667
0.750000 0.457333 0.028000
0.833333 0.457333 0.023333
0.916667 0.457333 0.018667
1.000000 0.457333 0.014000
1.000000 0.457333 0.009333
1.000000 0.457333 0.004667
1.000000 0.457333 0.000000
0.000000 0.522667 0.080000
0.083333 0.522667 0.074667
0.166667 0.522667 0.069333
0.250000 0.522667 0.064000
0.333333 0.522667 0.058667
0.416667 0.522667 0.053333
0.500000 0.522667 0.048000
0.583333 0.522667 0.042667
0.666667 0.522667 0.037333
0.750000 0.522667 0.032000
0.833333 0.522667 0.026667
0.916667 0.522667 0.021333
1.000000 0.522667 0.016000
1.000000 0.522667 0.010667
1.000000 0.522667 0.005333
1.000000 0.522667 0.000000
0.000000 0.588000 0.090000
0.083333 0.588000 0.084000
0.166667 0.588000 0.078000
0.250000 0.588000 0.072000
0.333333 0.588000 0.066000
0.416667 0.588000 0.060000
0.500000 0.588000 0.054000
0.583333 0.588000 0.048000
0.666667 0.588000 0.042000
0.750000 0.588000 0.036000
0.833333 0.588000 0.030000
0.916667 0.588000 0.024000
1.000000 0.588000 0.018000
1.000000 0.588000 0.012000
1.000000 0.588000 0.006000
1.000000 0.588000 0.000000
0.000000 0.653333 0.100000
0.083333 0.653333 0.093333
0.166667 0.653333 0.086667
0.250000 0.653333 0.080000
0.333333 0.653333 0.073333
0.416667 0.653333 0.066667
0.500000 0.653333 0.060000
0.583333 0.653333 0.053333
0.666667 0.653333 0.046667
0.750000 0.653333 0.040000
0.833333 0.653333 0.033333
0.916667 0.653333 0.026667
1.000000 0.653333 0.020000
1.000000 0.653333 0.013333
1.000000 0.653333 0.006667
1.000000 0.653333 0.000000
0.000000 0.718667 0.110000
0.083333 0.718667 0.102667
0.166667 0.718667 0.095333
0.250000 0.718667 0.088000
0.333333 0.718667 0.080667
0.416667 0.718667 0.073333
0.500000 0.718667 0.066000
0.583333 0.718667 0.058667
0.666667 0.718667 0.051333
0.750000 0.718667 0.044000
0.833333 0.718667 0.036667
0.916667 0.718667 0.029333
1.000000 0.718667 0.022000
1.000000 0.718667 0.014667
1.000000 0.718667 0.007333
1.000000 0.718667 0.000000
0.000000 0.784000 0.120000
0.083333 0.784000 0.112000
0.166667 0.784000 0.104000
0.250000 0.784000 0.096000
0.333333 0.784000 0.088000
0.416667 0.784000 0.080000
0.500000 0.784000 0.072000
0.583333 0.784000 0.064000
0.666667 0.784000 0.056000
0.750000 0.784000 0.048000
0.833333 0.784000 0.040000
0.916667 0.784000 0.032000
1.000000 0.784000 0.024000
1.000000 0.784000 0.016000
1.000000 0.784000 0.008000
1.000000 0.784000 0.000000
0.000000 0.849333 0.130000
0.083333 0.849333 0.121333
0.166667 0.849333 0.112667
0.250000 0.849333 0.104000
0.333333 0.849333 0.095333
0.416667 0.849333 0.086667
0.500000 0.849333 0.078000
0.583333 0.849333 0.069333
0.666667 0.849333 0.060667
0.750000 0.849333 0.052000
0.833333 0.849333 0.043333
0.916667 0.849333 0.034667
1.000000 0.849333 0.026000
1.000000 0.849333 0.017333
1.000000 0.849333 0.008667
1.000000 0.849333 0.000000
0.000000 0.914667 0.140000
0.083333 0.914667 0.130667
0.166667 0.914667 0.121333
0.250000 0.914667 0.112000
0.333333 0.914667 0.102667
0.416667 0.914667 0.093333
0.500000 0.914667 0.084000
0.583333 0.914667 0.074667
0.666667 0.914667 0.065333
0.750000 0.914667 0.056000
0.833333 0.914667 0.046667
0.916667 0.914667 0.037333
1.000000 0.914667 0.028000
1.000000 0.914667 0.018667
1.000000 0.914667 0.009333
1.000000 0.914667 0.000000
0.000000 0.980000 0.150000
0.083333 0.980000 0.140000
0.166667 0.980000 0.130000
0.250000 0.980000 0.120000
0.333333 0.980000 0.110000
0.416667 0.980000 0.100000
0.500000 0.980000 0.090000
0.583333 0.980000 0.080000
0.666667 0.980000 0.070000
0.750000 0.980000 0.060000
0.833333 0.980000 0.050000
0.916667 0.980000 0.040000
1.000000 0.980000 0.030000
1.000000 0.980000 0.020000
1.000000 0.980000 0.010000
1.000000 0.980000 0.000000
0.000000 0.003333 0.060000
0.076667 0.003333 0.060000
0.160000 0.003333 0.060000
0.243333 0.003333 0.060000
0.326667 0.003333 0.060000
0.410000 0.003333 0.060000
0.493333 0.003333 0.060000
0.576667 0.003333 0.060000
0.660000 0.003333 0.060000
0.743333 0.003333 0.060000
0.826667 0.003333 0.060000
0.910000 0.003333 0.060000
0.993333 0.003333 0.060000
1.000000 0.003333 0.060000
1.000000 0.003333 0.060000
1.000000 0.003333 0.060000
0.000000 0.068667 0.070000
0.076667 0.068667 0.069333
0.160000 0.068667 0.068667
0.243333 0.068667 0.068000
0.326667 0.068667 0.067333
0.410000 0.068667 0.066667
0.493333 0.068667 0.066000
0.576667 0.068667 0.065333
0.660000 0.068667 0.064667
0.743333 0.068667 0.064000
0.826667 0.068667 0.063333
0.910000 0.068667 0.062667
0.993333 0.068667 0.062000
1.000000 0.068667 0.061333
1.000000 0.068667 0.060667
1.000000 0.068667 0.060000
0.000000 0.134000 0.080000
0.076667 0.134000 0.078667
0.160000 0.134000 0.077333
0.243333 0.134000 0.076000
0.326667 0.134000 0.074667
0.410000 0.134000 0.073333
0.493333 0.134000 0.072000
0.576667 0.134000 0.070667
0.660000 0.134000 0.069333
0.743333 0.134000 0.068000
0.826667 0.134000 0.066667
0.910000 0.134000 0.065333
0.993333 0.134000 0.064000
1.000000 0.134000 0.062667
1.000000 0.134000 0.061333
1.000000 0.134000 0.060000
0.000000 0.199333 0.090000
0.076667 0.199333 0.088000
0.160000 0.199333 0.086000
0.243333 0.199333 0.084000
0.326667 0.199333 0.082000
0.410000 0.199333 0.080000
0.493333 0.199333 0.078000
0.576667 0.199333 0.076000
0.660000 0.199333 0.074000
0.743333 0.199333 0.072000
0.826667 0.199333 0.070000
0.910000 0.199333 0.068000
0.993333 0.199333 0.066000
1.000000 0.199333 0.064000
1.000000 0.199333 0.062000
1.000000 0.199333 0.060000
0.000000 0.264667 0.100000
0.076667 0.264667 0.097333
0.160000 0.264667 0.094667
0.243333 0.264667 0.092000
0.326667 0.264667 0.089333
0.410000 0.264667 0.086667
0.493333 0.264667 0.084000
0.576667 0.264667 0.081333
0.660000 0.264667 0.078667
0.743333 0.264667 0.076000
0.826667 0.264667 0.073333
0.910000 0.264667 0.070667
0.993333 0.264667 0.068000
1.000000 0.264667 0.065333
1.000000 0.264667 0.062667
1.000000 0.264667 0.060000
0.000000 0.330000 0.110000
0.076667 0.330000 0.106667
0.160000 0.330000 0.103333
0.243333 0.330000 0.100000
0.326667 0.330000 0.096667
0.410000 0.330000 0.093333
0.493333 0.330000 0.090000
0.576667 0.330000 0.086667
0.660000 0.330000 0.083333
0.743333 0.330000 0.080000
0.826667 0.330000 0.076667
0.910000 0.330000 0.073333
0.993333 0.330000 0.070000
1.000000 0.330000 0.066667
1.000000 0.330000 0.063333
1.000000 0.330000 0.060000
0.000000 0.395333 0.120000
0.076667 0.395333 0.116000
0.160000 0.395333 0.112000
0.243333 0.395333 0.108000
0.326667 0.395333 0.104000
0.410000 0.395333 0.100000
0.493333 0.395333 0.096000
0.576667 0.395333 0.092000
0.660000 0.395333 0.088000
0.743333 0.395333 0.084000
0.826667 0.395333 0.080000
0.910000 0.395333 0.076000
0.993333 0.395333 0.072000
1.000000 0.395333 0.068000
1.000000 0.395333 0.064000
1.000000 0.395333 0.060000
0.000000 0.460667 0.130000
0.076667 0.460667 0.125333
0.160000 0.460667 0.120667
0.243333 0.460667 0.116000
0.326667 0.460667 0.111333
0.410000 0.460667 0.106667
0.493333 0.460667 0.102000
0.576667 0.460667 0.097333
0.660000 0.460667 0.092667
0.743333 0.460667 0.088000
0.826667 0.460667 0.083333
0.910000 0.460667 0.078667
0.993333 0.460667 0.074000
1.000000 0.460667 0.069333
1.000000 0.460667 0.064667
1.000000 0.460667 0.060000
0.000000 0.526000 0.140000
0.076667 0.526000 0.134667
0.160000 0.526000 0.129333
0.243333 0.526000 0.124000
0.326667 0.526000 0.118667
0.410000 0.526000 0.113333
0.493333 0.526000 0.108000
0.576667 0.526000 0.102667
0.660000 0.526000 0.097333
0.743333 0.526000 0.092000
0.826667 0.526000 0.086667
0.910000 0.526000 0.081333
0.993333 0.526000 0.076000
1.000000 0.526000 0.070667
1.000000 0.526000 0.065333
1.000000 0.526000 0.060000
0.000000 0.591333 0.150000
0.076667 0.591333 0.144000
0.160000 0.591333 0.138000
0.243333 0.591333 0.132000
0.326667 0.591333 0.126000
0.410000 0.591333 0.120000
0.493333 0.591333 0.114000
0.576667 0.591333 0.108000
0.660000 0.591333 0.102000
0.743333 0.591333 0.096000
0.826667 0.591333 0.090000
0.910000 0.591333 0.084000
0.993333 0.591333 0.078000
1.000000 0.591333 0.072000
1.000000 0.591333 0.066000
1.000000 0.591333 0.060000
0.000000 0.656667 0.160000
0.076667 0.656667 0.153333
0.160000 0.656667 0.146667
0.243333 0.656667 0.140000
0.326667 0.656667 0.133333
0.410000 0.656667 0.126667
0.493333 0.656667 0.120000
0.576667 0.656667 0.113333
0.660000 0.656667 0.106667
0.743333 0.656667 0.100000
0.826667 0.656667 0.093333
0.910000 0.656667 0.086667
0.993333 0.656667 0.080000
1.000000 0.656667 0.073333
1.000000 0.656667 0.066667
1.000000 0.656667 0.060000
0.000000 0.722000 0.170000
0.076667 0.722000 0.162667
0.160000 0.722000 0.155333
0.243333 0.722000 0.148000
0.326667 0.722000 0.140667
0.410000 0.722000 0.133333
0.493333 0.722000 0.126000
0.576667 0.722000 0.118667
0.660000 0.722000 0.111333
0.743333 0.722000 0.104000
0.826667 0.722000 0.096667
0.910000 0.722000 0.089333
0.993333 0.722000 0.082000
1.000000 0.722000 0.074667
1.000000 0.722000 0.067333
1.000000 0.722000 0.060000
0.000000 0.787333 0.180000
0.076667 0.787333 0.172000
0.160000 0.787333 0.164000
0.243333 0.787333 0.156000
0.326667 0.787333 0.148000
0.410000 0.787333 0.140000
0.493333 0.787333 0.132000
0.576667 0.787333 0.124000
0.660000 0.787333 0.116000
0.743333 0.787333 0.108000
0.826667 0.787333 0.100000
0.910000 0.787333 0.092000
0.993333 0.787333 0.084000
1.000000 0.787333 0.076000
1.000000 0.787333 0.068000
1.000000 0.787333 0.060000
0.000000 0.852667 0.190000
0.076667 0.852667 0.181333
0.160000 0.852667 0.172667
0.243333 0.852667 0.164000
0.326667 0.852667 0.155333
0.410000 0.852667 0.146667
0.493333 0.852667 0.138000
0.576667 0.852667 0.129333
0.660000 0.852667 0.120667
0.743333 0.852667 0.112000
0.826667 0.852667 0.103333
0.910000 0.852667 0.094667
0.993333 0.852667 0.086000
1.000000 0.852667 0.077333
1.000000 0.852667 0.068667
1.000000 0.852667 0.060000
0.000000 0.918000 0.200000
0.076667 0.918000 0.190667
0.160000 0.918000 0.181333
0.243333 0.918000 0.172000
0.326667 0.918000 0.162667
0.410000 0.918000 0.153333
0.493333 0.918000 0.144000
0.576667 0.918000 0.134667
0.660000 0.918000 0.125333
0.743333 0.918000 0.116000
0.826667 0.918000 0.106667
0.910000 0.918000 0.097333
0.993333 0.918000 0.088000
1.000000 0.918000 0.078667
1.000000 0.918000 0.069333
1.000000 0.918000 0.060000
0.000000 0.983333 0.210000
0.076667 0.983333 0.200000
0.160000 0.983333 0.190000
0.243333 0.983333 0.180000
0.326667 0.983333 0.170000
0.410000 0.983333 0.160000
0.493333 0.983333 0.150000
0.576667 0.983333 0.140000
0.660000 0.983333 0.130000
0.743333 0.983333 0.120000
0.826667 0.983333 0.110000
0.910000 0.983333 0.100000
0.993333 0.983333 0.090000
1.000000 0.983333 0.080000
1.000000 0.983333 0.070000
1.000000 0.983333 0.060000
0.000000 0.006667 0.120000
0.070000 0.006667 0.120000
0.153333 0.006667 0.120000
0.236667 0.006667 0.120000
0.320000 0.006667 0.120000
0.403333 0.006667 0.120000
0.486667 0.006667 0.120000
0.570000 0.006667 0.120000
0.653333 0.006667 0.120000
0.736667 0.006667 0.120000
0.820000 0.006667 0.120000
0.903333 0.006667 0.120000
0.986667 0.006667 0.120000
1.000000 0.006667 0.120000
1.000000 0.006667 0.120000
1.000000 0.006667 0.120000
0.000000 0.072000 0.130000
0.070000 0.072000 0.129333
0.153333 0.072000 0.128667
0.236667 0.072000 0.128000
0.320000 0.072000 0.127333
0.403333 0.072000 0.126667
0.486667 0.072000 0.126000
0.570000 0.072000 0.125333
0.653333 0.072000 0.124667
0.736667 0.072000 0.124000
0.820000 0.072000 0.123333
0.903333 0.072000 0.122667
0.986667 0.072000 0.122000
1.000000 0.072000 0.121333
1.000000 0.072000 0.120667
1.000000 0.072000 0.120000
0.000000 0.137333 0.140000
0.070000 0.137333 0.138667
0.153333 0.137333 0.137333
0.236667 0.137333 0.136000
0.320000 0.137333 0.134667
0.403333 0.137333 0.133333
0.486667 0.137333 0.132000
0.570000 0.137333 0.130667
0.653333 0.137333 0.129333
0.736667 0.137333 0.128000
0.820000 0.137333 0.126667
0.903333 0.137333 0.125333
0.986667 0.137333 0.124000
1.000000 0.137333 0.122667
1.000000 0.137333 0.121333
1.000000 0.137333 0.120000
0.000000 0.202667 0.150000
0.070000 0.202667 0.148000
0.153333 0.202667 0.146000
0.236667 0.202667 0.144000
0.320000 0.202667 0.142000
0.403333 0.202667 0.140000
0.486667 0.202667 0.138000
0.570000 0.202667 0.136000
0.653333 0.202667 0.134000
0.736667 0.202667 0.132000
0.820000 0.202667 0.130000
0.903333 0.202667 0.128000
0.986667 0.202667 0.126000
1.000000 0.202667 0.124000
1.000000 0.202667 0.122000
1.000000 0.202667 0.120000
0.000000 0.268000 0.160000
0.070000 0.268000 0.157333
0.153333 0.268000 0.154667
0.236667 0.268000 0.152000
0.320000 0.268000 0.149333
0.403333 0.268000 0.146667
0.486667 0.268000 0.144000
0.570000 0.268000 0.141333
0.653333 0.268000 0.138667
0.736667 0.268000 0.136000
0.820000 0.268000 0.133333
0.903333 0.268000 0.130667
0.986667 0.268000 0.128000
1.000000 0.268000 0.125333
1.000000 0.268000 0.122667
1.000000 0.268000 0.120000
0.000000 0.333333 0.170000
0.070000 0.333333 0.166667
0.153333 0.333333 0.163333
0.236667 0.333333 0.160000
0.320000 0.333333 0.156667
0.403333 0.333333 0.153333
0.486667 0.333333 0.150000
0.570000 0.333333 0.146667
0.653333 0.333333 0.143333
0.736667 0.333333 0.140000
0.820000 0.333333 0.136667
0.903333 0.333333 0.133333
0.986667 0.333333 0.130000
1.000000 0.333333 0.126667
1.000000 0.333333 0.123333
1.000000 0.333333 0.120000
0.000000 0.398667 0.180000
0.070000 0.398667 0.176000
0.153333 0.398667 0.172000
0.236667 0.398667 0.168000
0.320000 0.398667 0.164000
0.403333 0.398667 0.160000
0.486667 0.398667 0.156000
0.570000 0.398667 0.152000
0.653333 0.398667 0.148000
0.736667 0.398667 0.144000
0.820000 0.398667 0.140000
0.903333 0.398667 0.136000
0.986667 0.398667 0.132000
1.000000 0.398667 0.128000
1.000000 0.398667 0.124000
1.000000 0.398667 0.120000
0.000000 0.464000 0.190000
0.070000 0.464000 0.185333
0.153333 0.464000 0.180667
0.236667 0.464000 0.176000
0.320000 0.464000 0.171333
0.403333 0.464000 0.166667
0.486667 0.464000 0.162000
0.570000 0.464000 0.157333
0.653333 0.464000 0.152667
0.736667 0.464000 0.148000
0.820000 0.464000 0.143333
0.903333 0.464000 0.138667
0.986667 0.464000 0.134000
1.000000 0.464000 0.129333
1.000000 0.464000 0.124667
1.000000 0.464000 0.120000
0.000000 0.529333 0.200000
0.070000 0.529333 0.194667
0.153333 0.529333 0.189333
0.236667 0.529333 0.184000
0.320000 0.529333 0.178667
0.403333 0.529333 0.173333
0.486667 0.529333 0.168000
0.570000 0.529333 0.162667
0.653333 0.529333 0.157333
0.736667 0.529333 0.152000
0.820000 0.529333 0.146667
0.903333 0.529333 0.141333
0.986667 0.529333 0.136000
1.000000 0.529333 0.130667
1.000000 0.529333 0.125333
1.000000 0.529333 0.120000
0.000000 0.594667 0.210000
0.070000 0.594667 0.204000
0.153333 0.594667 0.198000
0.236667 0.594667 0.192000
0.320000 0.594667 0.186000
0.403333 0.594667 0.180000
0.486667 0.594667 0.174000
0.570000 0.594667 0.168000
0.653333 0.594667 0.162000
0.736667 0.594667 0.156000
0.820000 0.594667 0.150000
0.903333 0.594667 0.144000
0.986667 0.594667 0.138000
1.000000 0.594667 0.132000
1.000000 0.594667 0.126000
1.000000 0.594667 0.120000
0.000000 0.660000 0.220000
0.070000 0.660000 0.213333
0.153333 0.660000 0.206667
0.236667 0.660000 0.200000
0.320000 0.660000 0.193333
0.403333 0.660000 0.186667
0.486667 0.660000 0.180000
0.570000 0.660000 0.173333
0.653333 0.660000 0.166667
0.736667 0.660000 0.160000
0.820000 0.660000 0.153333
0.903333 0.660000 0.146667
0.986667 0.660000 0.140000
1.000000 0.660000 0.133333
1.000000 0.660000 0.126667
1.000000 0.660000 0.120000
0.000000 0.725333 0.230000
0.070000 0.725333 0.222667
0.153333 0.725333 0.215333
0.236667 0.725333 0.208000
0.320000 0.725333 0.200667
0.403333 0.725333 0.193333
0.486667 0.725333 0.186000
0.570000 0.725333 0.178667
0.653333 0.725333 0.171333
0.736667 0.725333 0.164000
0.820000 0.725333 0.156667
0.903333 0.725333 0.149333
0.986667 0.725333 0.142000
1.000000 0.725333 0.134667
1.000000 0.725333 0.127333
1.000000 0.725333 0.120000
0.000000 0.790667 0.240000
0.070000 0.790667 0.232000
0.153333 0.790667 0.224000
0.236667 0.790667 0.216000
0.320000 0.790667 0.208000
0.403333 0.790667 0.200000
0.486667 0.790667 0.192000
0.570000 0.790667 0.184000
0.653333 0.790667 0.176000
0.736667 0.790667 0.168000
0.820000 0.790667 0.160000
0.903333 0.790667 0.152000
0.986667 0.790667 0.144000
1.000000 0.790667 0.136000
1.000000 0.790667 0.128000
1.000000 0.790667 0.120000
0.000000 0.856000 0.250000
0.070000 0.856000 0.241333
0.153333 0.856000 0.232667
0.236667 0.856000 0.224000
0.320000 0.856000 0.215333
0.403333 0.856000 0.206667
0.486667 0.856000 0.198000
0.570000 0.856000 0.189333
0.653333 0.856000 0.180667
0.736667 0.856000 0.172000
0.820000 0.856000 0.163333
0.903333 0.856000 0.154667
0.986667 0.856000 0.146000
1.000000 0.856000 0.137333
1.000000 0.856000 0.128667
1.000000 0.856000 0.120000
0.000000 0.921333 0.260000
0.070000 0.921333 0.250667
0.153333 0.921333 0.241333
0.236667 0.921333 0.232000
0.320000 0.921333 0.222667
0.403333 0.921333 0.213333
0.486667 0.921333 0.204000
0.570000 0.921333 0.194667
0.653333 0.921333 0.185333
0.736667 0.921333 0.176000
0.820000 0.921333 0.166667
0.903333 0.921333 0.157333
0.986667 0.921333 0.148000
1.000000 0.921333 0.138667
1.000000 0.921333 0.129333
1.000000 0.921333 0.120000
0.000000 0.986667 0.270000
0.070000 0.986667 0.260000
0.153333 0.986667 0.250000
0.236667 0.986667 0.240000
0.320000 0.986667 0.230000
0.403333 0.986667 0.220000
0.486667 0.986667 0.210000
0.570000 0.986667 0.200000
0.653333 0.986667 0.190000
0.736667 0.986667 0.180000
0.820000 0.986667 0.170000
0.903333 0.986667 0.160000
0.986667 0.986667 0.150000
1.000000 0.986667 0.140000
1.000000 0.986667 0.130000
1.000000 0.986667 0.120000
0.000000 0.010000 0.180000
0.063333 0.010000 0.180000
0.146667 0.010000 0.180000
0.230000 0.010000 0.180000
0.313333 0.010000 0.180000
0.396667 0.010000 0.180000
0.480000 0.010000 0.180000
0.563333 0.010000 0.180000
0.646667 0.010000 0.180000
0.730000 0.010000 0.180000
0.813333 0.010000 0.180000
0.896667 0.010000 0.180000
0.980000 0.010000 0.180000
1.000000 0.010000 0.180000
1.000000 0.010000 0.180000
1.000000 0.010000 0.180000
0.000000 0.075333 0.190000
0.063333 0.075333 0.189333
0.146667 0.075333 0.188667
0.230000 0.075333 0.188000
0.313333 0.075333 0.187333
0.396667 0.075333 0.186667
0.480000 0.075333 0.186000
0.563333 0.075333 0.185333
0.646667 0.075333 0.184667
0.730000 0.075333 0.184000
0.813333 0.075333 0.183333
0.896667 0.075333 0.182667
0.980000 0.075333 0.182000
1.000000 0.075333 0.181333
1.000000 0.075333 0.180667
1.000000 0.075333 0.180000
0.000000 0.140667 0.200000
0.063333 0.140667 0.198667
0.146667 0.140667 0.197333
0.230000 0.140667 0.196000
0.313333 0.140667 0.194667
0.396667 0.140667 0.193333
0.480000 0.140667 0.192000
0.563333 0.140667 0.190667
0.646667 0.140667 0.189333
0.730000 0.140667 0.188000
0.813333 0.140667 0.186667
0.896667 0.140667 0.185333
0.980000 0.140667 0.184000
1.000000 0.140667 0.182667
1.000000 0.140667 0.181333
1.000000 0.140667 0.180000
0.000000 0.206000 0.210000
0.063333 0.206000 0.208000
0.146667 0.206000 0.206000
0.230000 0.206000 0.204000
0.313333 0.206000 0.202000
0.396667 0.206000 0.200000
0.480000 0.206000 0.198000
0.563333 0.206000 0.196000
0.646667 0.206000 0.194000
0.730000 0.206000 0.192000
0.813333 0.206000 0.190000
0.896667 0.206000 0.188000
0.980000 0.206000 0.186000
1.000000 0.206000 0.184000
1.000000 0.206000 0.182000
1.000000 0.206000 0.180000
0.000000 0.271333 0.220000
0.063333 0.271333 0.217333
0.146667 0.271333 0.214667
0.230000 0.271333 0.212000
0.313333 0.271333 0.209333
0.396667 0.271333 0.206667
0.480000 0.271333 0.204000
0.563333 0.271333 0.201333
0.646667 0.271333 0.198667
0.730000 0.271333 0.196000
0.813333 0.271333 0.193333
0.896667 0.271333 0.190667
0.980000 0.271333 0.188000
1.000000 0.271333 0.185333
1.000000 0.271333 0.182667
1.000000 0.271333 0.180000
0.000000 0.336667 0.230000
0.063333 0.336667 0.226667
0.146667 0.336667 0.223333
0.230000 0.336667 0.220000
0.313333 0.336667 0.216667
0.396667 0.336667 0.213333
0.480000 0.336667 0.210000
0.563333 0.336667 0.206667
0.646667 0.336667 0.203333
0.730000 0.336667 0.200000
0.813333 0.336667 0.196667
0.896667 0.336667 0.193333
0.980000 0.336667 0.190000
1.000000 0.336667 0.186667
1.000000 0.336667 0.183333
1.000000 0.336667 0.180000
0.000000 0.402000 0.240000
0.063333 0.402000 0.236000
0.146667 0.402000 0.232000
0.230000 0.402000 0.228000
0.313333 0.402000 0.224000
0.396667 0.402000 0.220000
0.480000 0.402000 0.216000
0.563333 0.402000 0.212000
0.646667 0.402000 0.208000
0.730000 0.402000 0.204000
0.813333 0.402000 0.200000
0.896667 0.402000 0.196000
0.980000 0.402000 0.192000
1.000000 0.402000 0.188000
1.000000 0.402000 0.184000
1.000000 0.402000 0.180000
0.000000 0.467333 0.250000
0.063333 0.467333 0.245333
0.146667 0.467333 0.240667
0.230000 0.467333 0.236000
