app/src/main/assets/luts/cinematic.cube
# Yashora 3D LUT
TITLE "Cinematic Teal Orange"
LUT_3D_SIZE 6
DOMAIN_MIN 0.0 0.0 0.0
DOMAIN_MAX 1.0 1.0 1.0
0.000000 0.000000 0.000000
0.250000 0.000000 0.000000
0.500000 0.000000 0.000000
0.750000 0.000000 0.000000
1.000000 0.000000 0.000000
1.000000 0.000000 0.000000
0.000000 0.196000 0.030000
0.250000 0.196000 0.024000
0.500000 0.196000 0.018000
0.750000 0.196000 0.012000
1.000000 0.196000 0.006000
1.000000 0.196000 0.000000
0.000000 0.392000 0.060000
0.250000 0.392000 0.048000
0.500000 0.392000 0.036000
0.750000 0.392000 0.024000
1.000000 0.392000 0.012000
1.000000 0.392000 0.000000
0.000000 0.588000 0.090000
0.250000 0.588000 0.072000
0.500000 0.588000 0.054000
0.750000 0.588000 0.036000
1.000000 0.588000 0.018000
1.000000 0.588000 0.000000
0.000000 0.784000 0.120000
0.250000 0.784000 0.096000
0.500000 0.784000 0.072000
0.750000 0.784000 0.048000
1.000000 0.784000 0.024000
1.000000 0.784000 0.000000
0.000000 0.980000 0.150000
0.250000 0.980000 0.120000
0.500000 0.980000 0.090000
0.750000 0.980000 0.060000
1.000000 0.980000 0.030000
1.000000 0.980000 0.000000
0.000000 0.010000 0.180000
0.230000 0.010000 0.180000
0.480000 0.010000 0.180000
0.730000 0.010000 0.180000
0.980000 0.010000 0.180000
1.000000 0.010000 0.180000
0.000000 0.206000 0.210000
0.230000 0.206000 0.204000
0.480000 0.206000 0.198000
0.730000 0.206000 0.192000
0.980000 0.206000 0.186000
1.000000 0.206000 0.180000
0.000000 0.402000 0.240000
0.230000 0.402000 0.228000
0.480000 0.402000 0.216000
0.730000 0.402000 0.204000
0.980000 0.402000 0.192000
1.000000 0.402000 0.180000
0.000000 0.598000 0.270000
0.230000 0.598000 0.252000
0.480000 0.598000 0.234000
0.730000 0.598000 0.216000
0.980000 0.598000 0.198000
1.000000 0.598000 0.180000
0.000000 0.794000 0.300000
0.230000 0.794000 0.276000
0.480000 0.794000 0.252000
0.730000 0.794000 0.228000
0.980000 0.794000 0.204000
1.000000 0.794000 0.180000
0.000000 0.990000 0.330000
0.230000 0.990000 0.300000
0.480000 0.990000 0.270000
0.730000 0.990000 0.240000
0.980000 0.990000 0.210000
1.000000 0.990000 0.180000
0.000000 0.020000 0.360000
0.210000 0.020000 0.360000
0.460000 0.020000 0.360000
0.710000 0.020000 0.360000
0.960000 0.020000 0.360000
1.000000 0.020000 0.360000
0.000000 0.216000 0.390000
0.210000 0.216000 0.384000
0.460000 0.216000 0.378000
0.710000 0.216000 0.372000
0.960000 0.216000 0.366000
1.000000 0.216000 0.360000
0.000000 0.412000 0.420000
0.210000 0.412000 0.408000
0.460000 0.412000 0.396000
0.710000 0.412000 0.384000
0.960000 0.412000 0.372000
1.000000 0.412000 0.360000
0.000000 0.608000 0.450000
0.210000 0.608000 0.432000
0.460000 0.608000 0.414000
0.710000 0.608000 0.396000
0.960000 0.608000 0.378000
1.000000 0.608000 0.360000
0.000000 0.804000 0.480000
0.210000 0.804000 0.456000
0.460000 0.804000 0.432000
0.710000 0.804000 0.408000
0.960000 0.804000 0.384000
1.000000 0.804000 0.360000
0.000000 1.000000 0.510000
0.210000 1.000000 0.480000
0.460000 1.000000 0.450000
0.710000 1.000000 0.420000
0.960000 1.000000 0.390000
1.000000 1.000000 0.360000
0.000000 0.030000 0.540000
0.190000 0.030000 0.540000
0.440000 0.030000 0.540000
0.690000 0.030000 0.540000
0.940000 0.030000 0.540000
1.000000 0.030000 0.540000
0.000000 0.226000 0.570000
0.190000 0.226000 0.564000
0.440000 0.226000 0.558000
0.690000 0.226000 0.552000
0.940000 0.226000 0.546000
1.000000 0.226000 0.540000
0.000000 0.422000 0.600000
0.190000 0.422000 0.588000
0.440000 0.422000 0.576000
0.690000 0.422000 0.564000
0.940000 0.422000 0.552000
1.000000 0.422000 0.540000
0.000000 0.618000 0.630000
0.190000 0.618000 0.612000
0.440000 0.618000 0.594000
0.690000 0.618000 0.576000
0.940000 0.618000 0.558000
1.000000 0.618000 0.540000
0.000000 0.814000 0.660000
0.190000 0.814000 0.636000
0.440000 0.814000 0.612000
0.690000 0.814000 0.588000
0.940000 0.814000 0.564000
1.000000 0.814000 0.540000
0.000000 1.000000 0.690000
0.190000 1.000000 0.660000
0.440000 1.000000 0.630000
0.690000 1.000000 0.600000
0.940000 1.000000 0.570000
1.000000 1.000000 0.540000
0.000000 0.040000 0.720000
0.170000 0.040000 0.720000
0.420000 0.040000 0.720000
0.670000 0.040000 0.720000
0.920000 0.040000 0.720000
1.000000 0.040000 0.720000
0.000000 0.236000 0.750000
0.170000 0.236000 0.744000
0.420000 0.236000 0.738000
0.670000 0.236000 0.732000
0.920000 0.236000 0.726000
1.000000 0.236000 0.720000
0.000000 0.432000 0.780000
0.170000 0.432000 0.768000
0.420000 0.432000 0.756000
0.670000 0.432000 0.744000
0.920000 0.432000 0.732000
1.000000 0.432000 0.720000
0.000000 0.628000 0.810000
0.170000 0.628000 0.792000
0.420000 0.628000 0.774000
0.670000 0.628000 0.756000
0.920000 0.628000 0.738000
1.000000 0.628000 0.720000
0.000000 0.824000 0.840000
0.170000 0.824000 0.816000
0.420000 0.824000 0.792000
0.670000 0.824000 0.768000
0.920000 0.824000 0.744000
1.000000 0.824000 0.720000
0.000000 1.000000 0.870000
0.170000 1.000000 0.840000
0.420000 1.000000 0.810000
0.670000 1.000000 0.780000
0.920000 1.000000 0.750000
1.000000 1.000000 0.720000
0.000000 0.050000 0.900000
0.150000 0.050000 0.900000
0.400000 0.050000 0.900000
0.650000 0.050000 0.900000
0.900000 0.050000 0.900000
1.000000 0.050000 0.900000
0.000000 0.246000 0.930000
0.150000 0.246000 0.924000
0.400000 0.246000 0.918000
0.650000 0.246000 0.912000
0.900000 0.246000 0.906000
1.000000 0.246000 0.900000
0.000000 0.442000 0.960000
0.150000 0.442000 0.948000
0.400000 0.442000 0.936000
0.650000 0.442000 0.924000
0.900000 0.442000 0.912000
1.000000 0.442000 0.900000
0.000000 0.638000 0.990000
0.150000 0.638000 0.972000
0.400000 0.638000 0.954000
0.650000 0.638000 0.936000
0.900000 0.638000 0.918000
1.000000 0.638000 0.900000
0.000000 0.834000 1.000000
0.150000 0.834000 0.996000
0.400000 0.834000 0.972000
0.650000 0.834000 0.948000
0.900000 0.834000 0.924000
1.000000 0.834000 0.900000
0.000000 1.000000 1.000000
0.150000 1.000000 1.000000
0.400000 1.000000 0.990000
0.650000 1.000000 0.960000
0.900000 1.000000 0.930000
1.000000 1.000000 0.900000
