app/src/main/assets/luts/vintage.cube
# Yashora 3D LUT
TITLE "Vintage Nostalgia"
LUT_3D_SIZE 16
DOMAIN_MIN 0.0 0.0 0.0
DOMAIN_MAX 1.0 1.0 1.0
0.050000 0.030000 0.080000
0.110000 0.032667 0.080000
0.170000 0.035333 0.080000
0.230000 0.038000 0.080000
0.290000 0.040667 0.080000
0.350000 0.043333 0.080000
0.410000 0.046000 0.080000
0.470000 0.048667 0.080000
0.530000 0.051333 0.080000
0.590000 0.054000 0.080000
0.650000 0.056667 0.080000
0.710000 0.059333 0.080000
0.770000 0.062000 0.080000
0.830000 0.064667 0.080000
0.890000 0.067333 0.080000
0.950000 0.070000 0.080000
0.055333 0.088667 0.080000
0.115333 0.091333 0.080000
0.175333 0.094000 0.080000
0.235333 0.096667 0.080000
0.295333 0.099333 0.080000
0.355333 0.102000 0.080000
0.415333 0.104667 0.080000
0.475333 0.107333 0.080000
0.535333 0.110000 0.080000
0.595333 0.112667 0.080000
0.655333 0.115333 0.080000
0.715333 0.118000 0.080000
0.775333 0.120667 0.080000
0.835333 0.123333 0.080000
0.895333 0.126000 0.080000
0.955333 0.128667 0.080000
0.060667 0.147333 0.080000
0.120667 0.150000 0.080000
0.180667 0.152667 0.080000
0.240667 0.155333 0.080000
0.300667 0.158000 0.080000
0.360667 0.160667 0.080000
0.420667 0.163333 0.080000
0.480667 0.166000 0.080000
0.540667 0.168667 0.080000
0.600667 0.171333 0.080000
0.660667 0.174000 0.080000
0.720667 0.176667 0.080000
0.780667 0.179333 0.080000
0.840667 0.182000 0.080000
0.900667 0.184667 0.080000
0.960667 0.187333 0.080000
0.066000 0.206000 0.080000
0.126000 0.208667 0.080000
0.186000 0.211333 0.080000
0.246000 0.214000 0.080000
0.306000 0.216667 0.080000
0.366000 0.219333 0.080000
0.426000 0.222000 0.080000
0.486000 0.224667 0.080000
0.546000 0.227333 0.080000
0.606000 0.230000 0.080000
0.666000 0.232667 0.080000
0.726000 0.235333 0.080000
0.786000 0.238000 0.080000
0.846000 0.240667 0.080000
0.906000 0.243333 0.080000
0.966000 0.246000 0.080000
0.071333 0.264667 0.080000
0.131333 0.267333 0.080000
0.191333 0.270000 0.080000
0.251333 0.272667 0.080000
0.311333 0.275333 0.080000
0.371333 0.278000 0.080000
0.431333 0.280667 0.080000
0.491333 0.283333 0.080000
0.551333 0.286000 0.080000
0.611333 0.288667 0.080000
0.671333 0.291333 0.080000
0.731333 0.294000 0.080000
0.791333 0.296667 0.080000
0.851333 0.299333 0.080000
0.911333 0.302000 0.080000
0.971333 0.304667 0.080000
0.076667 0.323333 0.080000
0.136667 0.326000 0.080000
0.196667 0.328667 0.080000
0.256667 0.331333 0.080000
0.316667 0.334000 0.080000
0.376667 0.336667 0.080000
0.436667 0.339333 0.080000
0.496667 0.342000 0.080000
0.556667 0.344667 0.080000
0.616667 0.347333 0.080000
0.676667 0.350000 0.080000
0.736667 0.352667 0.080000
0.796667 0.355333 0.080000
0.856667 0.358000 0.080000
0.916667 0.360667 0.080000
0.976667 0.363333 0.080000
0.082000 0.382000 0.080000
0.142000 0.384667 0.080000
0.202000 0.387333 0.080000
0.262000 0.390000 0.080000
0.322000 0.392667 0.080000
0.382000 0.395333 0.080000
0.442000 0.398000 0.080000
0.502000 0.400667 0.080000
0.562000 0.403333 0.080000
0.622000 0.406000 0.080000
0.682000 0.408667 0.080000
0.742000 0.411333 0.080000
0.802000 0.414000 0.080000
0.862000 0.416667 0.080000
0.922000 0.419333 0.080000
0.982000 0.422000 0.080000
0.087333 0.440667 0.080000
0.147333 0.443333 0.080000
0.207333 0.446000 0.080000
0.267333 0.448667 0.080000
0.327333 0.451333 0.080000
0.387333 0.454000 0.080000
0.447333 0.456667 0.080000
0.507333 0.459333 0.080000
0.567333 0.462000 0.080000
0.627333 0.464667 0.080000
0.687333 0.467333 0.080000
0.747333 0.470000 0.080000
0.807333 0.472667 0.080000
0.867333 0.475333 0.080000
0.927333 0.478000 0.080000
0.987333 0.480667 0.080000
0.092667 0.499333 0.080000
0.152667 0.502000 0.080000
0.212667 0.504667 0.080000
0.272667 0.507333 0.080000
0.332667 0.510000 0.080000
0.392667 0.512667 0.080000
0.452667 0.515333 0.080000
0.512667 0.518000 0.080000
0.572667 0.520667 0.080000
0.632667 0.523333 0.080000
0.692667 0.526000 0.080000
0.752667 0.528667 0.080000
0.812667 0.531333 0.080000
0.872667 0.534000 0.080000
0.932667 0.536667 0.080000
0.992667 0.539333 0.080000
0.098000 0.558000 0.080000
0.158000 0.560667 0.080000
0.218000 0.563333 0.080000
0.278000 0.566000 0.080000
0.338000 0.568667 0.080000
0.398000 0.571333 0.080000
0.458000 0.574000 0.080000
0.518000 0.576667 0.080000
0.578000 0.579333 0.080000
0.638000 0.582000 0.080000
0.698000 0.584667 0.080000
0.758000 0.587333 0.080000
0.818000 0.590000 0.080000
0.878000 0.592667 0.080000
0.938000 0.595333 0.080000
0.998000 0.598000 0.080000
0.103333 0.616667 0.080000
0.163333 0.619333 0.080000
0.223333 0.622000 0.080000
0.283333 0.624667 0.080000
0.343333 0.627333 0.080000
0.403333 0.630000 0.080000
0.463333 0.632667 0.080000
0.523333 0.635333 0.080000
0.583333 0.638000 0.080000
0.643333 0.640667 0.080000
0.703333 0.643333 0.080000
0.763333 0.646000 0.080000
0.823333 0.648667 0.080000
0.883333 0.651333 0.080000
0.943333 0.654000 0.080000
1.000000 0.656667 0.080000
0.108667 0.675333 0.080000
0.168667 0.678000 0.080000
0.228667 0.680667 0.080000
0.288667 0.683333 0.080000
0.348667 0.686000 0.080000
0.408667 0.688667 0.080000
0.468667 0.691333 0.080000
0.528667 0.694000 0.080000
0.588667 0.696667 0.080000
0.648667 0.699333 0.080000
0.708667 0.702000 0.080000
0.768667 0.704667 0.080000
0.828667 0.707333 0.080000
0.888667 0.710000 0.080000
0.948667 0.712667 0.080000
1.000000 0.715333 0.080000
0.114000 0.734000 0.080000
0.174000 0.736667 0.080000
0.234000 0.739333 0.080000
0.294000 0.742000 0.080000
0.354000 0.744667 0.080000
0.414000 0.747333 0.080000
0.474000 0.750000 0.080000
0.534000 0.752667 0.080000
0.594000 0.755333 0.080000
0.654000 0.758000 0.080000
0.714000 0.760667 0.080000
0.774000 0.763333 0.080000
0.834000 0.766000 0.080000
0.894000 0.768667 0.080000
0.954000 0.771333 0.080000
1.000000 0.774000 0.080000
0.119333 0.792667 0.080000
0.179333 0.795333 0.080000
0.239333 0.798000 0.080000
0.299333 0.800667 0.080000
0.359333 0.803333 0.080000
0.419333 0.806000 0.080000
0.479333 0.808667 0.080000
0.539333 0.811333 0.080000
0.599333 0.814000 0.080000
0.659333 0.816667 0.080000
0.719333 0.819333 0.080000
0.779333 0.822000 0.080000
0.839333 0.824667 0.080000
0.899333 0.827333 0.080000
0.959333 0.830000 0.080000
1.000000 0.832667 0.080000
0.124667 0.851333 0.080000
0.184667 0.854000 0.080000
0.244667 0.856667 0.080000
0.304667 0.859333 0.080000
0.364667 0.862000 0.080000
0.424667 0.864667 0.080000
0.484667 0.867333 0.080000
0.544667 0.870000 0.080000
0.604667 0.872667 0.080000
0.664667 0.875333 0.080000
0.724667 0.878000 0.080000
0.784667 0.880667 0.080000
0.844667 0.883333 0.080000
0.904667 0.886000 0.080000
0.964667 0.888667 0.080000
1.000000 0.891333 0.080000
0.130000 0.910000 0.080000
0.190000 0.912667 0.080000
0.250000 0.915333 0.080000
0.310000 0.918000 0.080000
0.370000 0.920667 0.080000
0.430000 0.923333 0.080000
0.490000 0.926000 0.080000
0.550000 0.928667 0.080000
0.610000 0.931333 0.080000
0.670000 0.934000 0.080000
0.730000 0.936667 0.080000
0.790000 0.939333 0.080000
0.850000 0.942000 0.080000
0.910000 0.944667 0.080000
0.970000 0.947333 0.080000
1.000000 0.950000 0.080000
0.050000 0.030000 0.130000
0.110000 0.032667 0.130000
0.170000 0.035333 0.130000
0.230000 0.038000 0.130000
0.290000 0.040667 0.130000
0.350000 0.043333 0.130000
0.410000 0.046000 0.130000
0.470000 0.048667 0.130000
0.530000 0.051333 0.130000
0.590000 0.054000 0.130000
0.650000 0.056667 0.130000
0.710000 0.059333 0.130000
0.770000 0.062000 0.130000
0.830000 0.064667 0.130000
0.890000 0.067333 0.130000
0.950000 0.070000 0.130000
0.055333 0.088667 0.130000
0.115333 0.091333 0.130000
0.175333 0.094000 0.130000
0.235333 0.096667 0.130000
0.295333 0.099333 0.130000
0.355333 0.102000 0.130000
0.415333 0.104667 0.130000
0.475333 0.107333 0.130000
0.535333 0.110000 0.130000
0.595333 0.112667 0.130000
0.655333 0.115333 0.130000
0.715333 0.118000 0.130000
0.775333 0.120667 0.130000
0.835333 0.123333 0.130000
0.895333 0.126000 0.130000
0.955333 0.128667 0.130000
0.060667 0.147333 0.130000
0.120667 0.150000 0.130000
0.180667 0.152667 0.130000
0.240667 0.155333 0.130000
0.300667 0.158000 0.130000
0.360667 0.160667 0.130000
0.420667 0.163333 0.130000
0.480667 0.166000 0.130000
0.540667 0.168667 0.130000
0.600667 0.171333 0.130000
0.660667 0.174000 0.130000
0.720667 0.176667 0.130000
0.780667 0.179333 0.130000
0.840667 0.182000 0.130000
0.900667 0.184667 0.130000
0.960667 0.187333 0.130000
0.066000 0.206000 0.130000
0.126000 0.208667 0.130000
0.186000 0.211333 0.130000
0.246000 0.214000 0.130000
0.306000 0.216667 0.130000
0.366000 0.219333 0.130000
0.426000 0.222000 0.130000
0.486000 0.224667 0.130000
0.546000 0.227333 0.130000
0.606000 0.230000 0.130000
0.666000 0.232667 0.130000
0.726000 0.235333 0.130000
0.786000 0.238000 0.130000
0.846000 0.240667 0.130000
0.906000 0.243333 0.130000
0.966000 0.246000 0.130000
0.071333 0.264667 0.130000
0.131333 0.267333 0.130000
0.191333 0.270000 0.130000
0.251333 0.272667 0.130000
0.311333 0.275333 0.130000
0.371333 0.278000 0.130000
0.431333 0.280667 0.130000
0.491333 0.283333 0.130000
0.551333 0.286000 0.130000
0.611333 0.288667 0.130000
0.671333 0.291333 0.130000
0.731333 0.294000 0.130000
0.791333 0.296667 0.130000
0.851333 0.299333 0.130000
0.911333 0.302000 0.130000
0.971333 0.304667 0.130000
0.076667 0.323333 0.130000
0.136667 0.326000 0.130000
0.196667 0.328667 0.130000
0.256667 0.331333 0.130000
0.316667 0.334000 0.130000
0.376667 0.336667 0.130000
0.436667 0.339333 0.130000
0.496667 0.342000 0.130000
0.556667 0.344667 0.130000
0.616667 0.347333 0.130000
0.676667 0.350000 0.130000
0.736667 0.352667 0.130000
0.796667 0.355333 0.130000
0.856667 0.358000 0.130000
0.916667 0.360667 0.130000
0.976667 0.363333 0.130000
0.082000 0.382000 0.130000
0.142000 0.384667 0.130000
0.202000 0.387333 0.130000
0.262000 0.390000 0.130000
0.322000 0.392667 0.130000
0.382000 0.395333 0.130000
0.442000 0.398000 0.130000
0.502000 0.400667 0.130000
0.562000 0.403333 0.130000
0.622000 0.406000 0.130000
0.682000 0.408667 0.130000
0.742000 0.411333 0.130000
0.802000 0.414000 0.130000
0.862000 0.416667 0.130000
0.922000 0.419333 0.130000
0.982000 0.422000 0.130000
0.087333 0.440667 0.130000
0.147333 0.443333 0.130000
0.207333 0.446000 0.130000
0.267333 0.448667 0.130000
0.327333 0.451333 0.130000
0.387333 0.454000 0.130000
0.447333 0.456667 0.130000
0.507333 0.459333 0.130000
0.567333 0.462000 0.130000
0.627333 0.464667 0.130000
0.687333 0.467333 0.130000
0.747333 0.470000 0.130000
0.807333 0.472667 0.130000
0.867333 0.475333 0.130000
0.927333 0.478000 0.130000
0.987333 0.480667 0.130000
0.092667 0.499333 0.130000
0.152667 0.502000 0.130000
0.212667 0.504667 0.130000
0.272667 0.507333 0.130000
0.332667 0.510000 0.130000
0.392667 0.512667 0.130000
0.452667 0.515333 0.130000
0.512667 0.518000 0.130000
0.572667 0.520667 0.130000
0.632667 0.523333 0.130000
0.692667 0.526000 0.130000
0.752667 0.528667 0.130000
0.812667 0.531333 0.130000
0.872667 0.534000 0.130000
0.932667 0.536667 0.130000
0.992667 0.539333 0.130000
0.098000 0.558000 0.130000
0.158000 0.560667 0.130000
0.218000 0.563333 0.130000
0.278000 0.566000 0.130000
0.338000 0.568667 0.130000
0.398000 0.571333 0.130000
0.458000 0.574000 0.130000
0.518000 0.576667 0.130000
0.578000 0.579333 0.130000
0.638000 0.582000 0.130000
0.698000 0.584667 0.130000
0.758000 0.587333 0.130000
0.818000 0.590000 0.130000
0.878000 0.592667 0.130000
0.938000 0.595333 0.130000
0.998000 0.598000 0.130000
0.103333 0.616667 0.130000
0.163333 0.619333 0.130000
0.223333 0.622000 0.130000
0.283333 0.624667 0.130000
0.343333 0.627333 0.130000
0.403333 0.630000 0.130000
0.463333 0.632667 0.130000
0.523333 0.635333 0.130000
0.583333 0.638000 0.130000
0.643333 0.640667 0.130000
0.703333 0.643333 0.130000
0.763333 0.646000 0.130000
0.823333 0.648667 0.130000
0.883333 0.651333 0.130000
0.943333 0.654000 0.130000
1.000000 0.656667 0.130000
0.108667 0.675333 0.130000
0.168667 0.678000 0.130000
0.228667 0.680667 0.130000
0.288667 0.683333 0.130000
0.348667 0.686000 0.130000
0.408667 0.688667 0.130000
0.468667 0.691333 0.130000
0.528667 0.694000 0.130000
0.588667 0.696667 0.130000
0.648667 0.699333 0.130000
0.708667 0.702000 0.130000
0.768667 0.704667 0.130000
0.828667 0.707333 0.130000
0.888667 0.710000 0.130000
0.948667 0.712667 0.130000
1.000000 0.715333 0.130000
0.114000 0.734000 0.130000
0.174000 0.736667 0.130000
0.234000 0.739333 0.130000
0.294000 0.742000 0.130000
0.354000 0.744667 0.130000
0.414000 0.747333 0.130000
0.474000 0.750000 0.130000
0.534000 0.752667 0.130000
0.594000 0.755333 0.130000
0.654000 0.758000 0.130000
0.714000 0.760667 0.130000
0.774000 0.763333 0.130000
0.834000 0.766000 0.130000
0.894000 0.768667 0.130000
0.954000 0.771333 0.130000
1.000000 0.774000 0.130000
0.119333 0.792667 0.130000
0.179333 0.795333 0.130000
0.239333 0.798000 0.130000
0.299333 0.800667 0.130000
0.359333 0.803333 0.130000
0.419333 0.806000 0.130000
0.479333 0.808667 0.130000
0.539333 0.811333 0.130000
0.599333 0.814000 0.130000
0.659333 0.816667 0.130000
0.719333 0.819333 0.130000
0.779333 0.822000 0.130000
0.839333 0.824667 0.130000
0.899333 0.827333 0.130000
0.959333 0.830000 0.130000
1.000000 0.832667 0.130000
0.124667 0.851333 0.130000
0.184667 0.854000 0.130000
0.244667 0.856667 0.130000
0.304667 0.859333 0.130000
0.364667 0.862000 0.130000
0.424667 0.864667 0.130000
0.484667 0.867333 0.130000
0.544667 0.870000 0.130000
0.604667 0.872667 0.130000
0.664667 0.875333 0.130000
0.724667 0.878000 0.130000
0.784667 0.880667 0.130000
0.844667 0.883333 0.130000
0.904667 0.886000 0.130000
0.964667 0.888667 0.130000
1.000000 0.891333 0.130000
0.130000 0.910000 0.130000
0.190000 0.912667 0.130000
0.250000 0.915333 0.130000
0.310000 0.918000 0.130000
0.370000 0.920667 0.130000
0.430000 0.923333 0.130000
0.490000 0.926000 0.130000
0.550000 0.928667 0.130000
0.610000 0.931333 0.130000
0.670000 0.934000 0.130000
0.730000 0.936667 0.130000
0.790000 0.939333 0.130000
0.850000 0.942000 0.130000
0.910000 0.944667 0.130000
0.970000 0.947333 0.130000
1.000000 0.950000 0.130000
0.050000 0.030000 0.180000
0.110000 0.032667 0.180000
0.170000 0.035333 0.180000
0.230000 0.038000 0.180000
0.290000 0.040667 0.180000
0.350000 0.043333 0.180000
0.410000 0.046000 0.180000
0.470000 0.048667 0.180000
0.530000 0.051333 0.180000
0.590000 0.054000 0.180000
0.650000 0.056667 0.180000
0.710000 0.059333 0.180000
0.770000 0.062000 0.180000
0.830000 0.064667 0.180000
0.890000 0.067333 0.180000
0.950000 0.070000 0.180000
0.055333 0.088667 0.180000
0.115333 0.091333 0.180000
0.175333 0.094000 0.180000
0.235333 0.096667 0.180000
0.295333 0.099333 0.180000
0.355333 0.102000 0.180000
0.415333 0.104667 0.180000
0.475333 0.107333 0.180000
0.535333 0.110000 0.180000
0.595333 0.112667 0.180000
0.655333 0.115333 0.180000
0.715333 0.118000 0.180000
0.775333 0.120667 0.180000
0.835333 0.123333 0.180000
0.895333 0.126000 0.180000
0.955333 0.128667 0.180000
0.060667 0.147333 0.180000
0.120667 0.150000 0.180000
0.180667 0.152667 0.180000
0.240667 0.155333 0.180000
0.300667 0.158000 0.180000
0.360667 0.160667 0.180000
0.420667 0.163333 0.180000
0.480667 0.166000 0.180000
0.540667 0.168667 0.180000
0.600667 0.171333 0.180000
0.660667 0.174000 0.180000
0.720667 0.176667 0.180000
0.780667 0.179333 0.180000
0.840667 0.182000 0.180000
0.900667 0.184667 0.180000
0.960667 0.187333 0.180000
0.066000 0.206000 0.180000
0.126000 0.208667 0.180000
0.186000 0.211333 0.180000
0.246000 0.214000 0.180000
0.306000 0.216667 0.180000
0.366000 0.219333 0.180000
0.426000 0.222000 0.180000
0.486000 0.224667 0.180000
0.546000 0.227333 0.180000
0.606000 0.230000 0.180000
0.666000 0.232667 0.180000
0.726000 0.235333 0.180000
0.786000 0.238000 0.180000
0.846000 0.240667 0.180000
0.906000 0.243333 0.180000
0.966000 0.246000 0.180000
0.071333 0.264667 0.180000
0.131333 0.267333 0.180000
0.191333 0.270000 0.180000
0.251333 0.272667 0.180000
0.311333 0.275333 0.180000
0.371333 0.278000 0.180000
0.431333 0.280667 0.180000
0.491333 0.283333 0.180000
0.551333 0.286000 0.180000
0.611333 0.288667 0.180000
0.671333 0.291333 0.180000
0.731333 0.294000 0.180000
0.791333 0.296667 0.180000
0.851333 0.299333 0.180000
0.911333 0.302000 0.180000
0.971333 0.304667 0.180000
0.076667 0.323333 0.180000
0.136667 0.326000 0.180000
0.196667 0.328667 0.180000
0.256667 0.331333 0.180000
0.316667 0.334000 0.180000
0.376667 0.336667 0.180000
0.436667 0.339333 0.180000
0.496667 0.342000 0.180000
0.556667 0.344667 0.180000
0.616667 0.347333 0.180000
0.676667 0.350000 0.180000
0.736667 0.352667 0.180000
0.796667 0.355333 0.180000
0.856667 0.358000 0.180000
0.916667 0.360667 0.180000
0.976667 0.363333 0.180000
0.082000 0.382000 0.180000
0.142000 0.384667 0.180000
0.202000 0.387333 0.180000
0.262000 0.390000 0.180000
0.322000 0.392667 0.180000
0.382000 0.395333 0.180000
0.442000 0.398000 0.180000
0.502000 0.400667 0.180000
0.562000 0.403333 0.180000
0.622000 0.406000 0.180000
0.682000 0.408667 0.180000
0.742000 0.411333 0.180000
0.802000 0.414000 0.180000
0.862000 0.416667 0.180000
0.922000 0.419333 0.180000
0.982000 0.422000 0.180000
0.087333 0.440667 0.180000
0.147333 0.443333 0.180000
0.207333 0.446000 0.180000
0.267333 0.448667 0.180000
0.327333 0.451333 0.180000
0.387333 0.454000 0.180000
0.447333 0.456667 0.180000
0.507333 0.459333 0.180000
0.567333 0.462000 0.180000
0.627333 0.464667 0.180000
0.687333 0.467333 0.180000
0.747333 0.470000 0.180000
0.807333 0.472667 0.180000
0.867333 0.475333 0.180000
0.927333 0.478000 0.180000
0.987333 0.480667 0.180000
0.092667 0.499333 0.180000
0.152667 0.502000 0.180000
0.212667 0.504667 0.180000
0.272667 0.507333 0.180000
0.332667 0.510000 0.180000
0.392667 0.512667 0.180000
0.452667 0.515333 0.180000
0.512667 0.518000 0.180000
0.572667 0.520667 0.180000
0.632667 0.523333 0.180000
0.692667 0.526000 0.180000
0.752667 0.528667 0.180000
0.812667 0.531333 0.180000
0.872667 0.534000 0.180000
0.932667 0.536667 0.180000
0.992667 0.539333 0.180000
0.098000 0.558000 0.180000
0.158000 0.560667 0.180000
0.218000 0.563333 0.180000
0.278000 0.566000 0.180000
0.338000 0.568667 0.180000
0.398000 0.571333 0.180000
0.458000 0.574000 0.180000
0.518000 0.576667 0.180000
0.578000 0.579333 0.180000
0.638000 0.582000 0.180000
0.698000 0.584667 0.180000
0.758000 0.587333 0.180000
0.818000 0.590000 0.180000
0.878000 0.592667 0.180000
0.938000 0.595333 0.180000
0.998000 0.598000 0.180000
0.103333 0.616667 0.180000
0.163333 0.619333 0.180000
0.223333 0.622000 0.180000
0.283333 0.624667 0.180000
0.343333 0.627333 0.180000
0.403333 0.630000 0.180000
0.463333 0.632667 0.180000
0.523333 0.635333 0.180000
0.583333 0.638000 0.180000
0.643333 0.640667 0.180000
0.703333 0.643333 0.180000
0.763333 0.646000 0.180000
0.823333 0.648667 0.180000
0.883333 0.651333 0.180000
0.943333 0.654000 0.180000
1.000000 0.656667 0.180000
0.108667 0.675333 0.180000
0.168667 0.678000 0.180000
0.228667 0.680667 0.180000
0.288667 0.683333 0.180000
0.348667 0.686000 0.180000
0.408667 0.688667 0.180000
0.468667 0.691333 0.180000
0.528667 0.694000 0.180000
0.588667 0.696667 0.180000
0.648667 0.699333 0.180000
0.708667 0.702000 0.180000
0.768667 0.704667 0.180000
0.828667 0.707333 0.180000
0.888667 0.710000 0.180000
0.948667 0.712667 0.180000
1.000000 0.715333 0.180000
0.114000 0.734000 0.180000
0.174000 0.736667 0.180000
0.234000 0.739333 0.180000
0.294000 0.742000 0.180000
0.354000 0.744667 0.180000
0.414000 0.747333 0.180000
0.474000 0.750000 0.180000
0.534000 0.752667 0.180000
0.594000 0.755333 0.180000
0.654000 0.758000 0.180000
0.714000 0.760667 0.180000
0.774000 0.763333 0.180000
0.834000 0.766000 0.180000
0.894000 0.768667 0.180000
0.954000 0.771333 0.180000
1.000000 0.774000 0.180000
0.119333 0.792667 0.180000
0.179333 0.795333 0.180000
0.239333 0.798000 0.180000
0.299333 0.800667 0.180000
0.359333 0.803333 0.180000
0.419333 0.806000 0.180000
0.479333 0.808667 0.180000
0.539333 0.811333 0.180000
0.599333 0.814000 0.180000
0.659333 0.816667 0.180000
0.719333 0.819333 0.180000
0.779333 0.822000 0.180000
0.839333 0.824667 0.180000
0.899333 0.827333 0.180000
0.959333 0.830000 0.180000
1.000000 0.832667 0.180000
0.124667 0.851333 0.180000
0.184667 0.854000 0.180000
0.244667 0.856667 0.180000
0.304667 0.859333 0.180000
0.364667 0.862000 0.180000
0.424667 0.864667 0.180000
0.484667 0.867333 0.180000
0.544667 0.870000 0.180000
0.604667 0.872667 0.180000
0.664667 0.875333 0.180000
0.724667 0.878000 0.180000
0.784667 0.880667 0.180000
0.844667 0.883333 0.180000
0.904667 0.886000 0.180000
0.964667 0.888667 0.180000
1.000000 0.891333 0.180000
0.130000 0.910000 0.180000
0.190000 0.912667 0.180000
0.250000 0.915333 0.180000
0.310000 0.918000 0.180000
0.370000 0.920667 0.180000
0.430000 0.923333 0.180000
0.490000 0.926000 0.180000
0.550000 0.928667 0.180000
0.610000 0.931333 0.180000
0.670000 0.934000 0.180000
0.730000 0.936667 0.180000
0.790000 0.939333 0.180000
0.850000 0.942000 0.180000
0.910000 0.944667 0.180000
0.970000 0.947333 0.180000
1.000000 0.950000 0.180000
0.050000 0.030000 0.230000
0.110000 0.032667 0.230000
0.170000 0.035333 0.230000
0.230000 0.038000 0.230000
0.290000 0.040667 0.230000
0.350000 0.043333 0.230000
0.410000 0.046000 0.230000
0.470000 0.048667 0.230000
0.530000 0.051333 0.230000
0.590000 0.054000 0.230000
0.650000 0.056667 0.230000
0.710000 0.059333 0.230000
0.770000 0.062000 0.230000
0.830000 0.064667 0.230000
0.890000 0.067333 0.230000
0.950000 0.070000 0.230000
0.055333 0.088667 0.230000
0.115333 0.091333 0.230000
0.175333 0.094000 0.230000
0.235333 0.096667 0.230000
0.295333 0.099333 0.230000
0.355333 0.102000 0.230000
0.415333 0.104667 0.230000
0.475333 0.107333 0.230000
0.535333 0.110000 0.230000
0.595333 0.112667 0.230000
0.655333 0.115333 0.230000
0.715333 0.118000 0.230000
0.775333 0.120667 0.230000
0.835333 0.123333 0.230000
0.895333 0.126000 0.230000
0.955333 0.128667 0.230000
0.060667 0.147333 0.230000
0.120667 0.150000 0.230000
0.180667 0.152667 0.230000
0.240667 0.155333 0.230000
0.300667 0.158000 0.230000
0.360667 0.160667 0.230000
0.420667 0.163333 0.230000
0.480667 0.166000 0.230000
0.540667 0.168667 0.230000
0.600667 0.171333 0.230000
0.660667 0.174000 0.230000
0.720667 0.176667 0.230000
0.780667 0.179333 0.230000
0.840667 0.182000 0.230000
0.900667 0.184667 0.230000
0.960667 0.187333 0.230000
0.066000 0.206000 0.230000
0.126000 0.208667 0.230000
0.186000 0.211333 0.230000
0.246000 0.214000 0.230000
0.306000 0.216667 0.230000
0.366000 0.219333 0.230000
0.426000 0.222000 0.230000
0.486000 0.224667 0.230000
0.546000 0.227333 0.230000
0.606000 0.230000 0.230000
0.666000 0.232667 0.230000
0.726000 0.235333 0.230000
0.786000 0.238000 0.230000
0.846000 0.240667 0.230000
0.906000 0.243333 0.230000
0.966000 0.246000 0.230000
0.071333 0.264667 0.230000
0.131333 0.267333 0.230000
0.191333 0.270000 0.230000
0.251333 0.272667 0.230000
0.311333 0.275333 0.230000
0.371333 0.278000 0.230000
0.431333 0.280667 0.230000
0.491333 0.283333 0.230000
0.551333 0.286000 0.230000
0.611333 0.288667 0.230000
0.671333 0.291333 0.230000
0.731333 0.294000 0.230000
0.791333 0.296667 0.230000
0.851333 0.299333 0.230000
0.911333 0.302000 0.230000
0.971333 0.304667 0.230000
0.076667 0.323333 0.230000
0.136667 0.326000 0.230000
0.196667 0.328667 0.230000
0.256667 0.331333 0.230000
0.316667 0.334000 0.230000
0.376667 0.336667 0.230000
0.436667 0.339333 0.230000
0.496667 0.342000 0.230000
0.556667 0.344667 0.230000
0.616667 0.347333 0.230000
0.676667 0.350000 0.230000
0.736667 0.352667 0.230000
0.796667 0.355333 0.230000
0.856667 0.358000 0.230000
0.916667 0.360667 0.230000
0.976667 0.363333 0.230000
0.082000 0.382000 0.230000
0.142000 0.384667 0.230000
0.202000 0.387333 0.230000
0.262000 0.390000 0.230000
0.322000 0.392667 0.230000
0.382000 0.395333 0.230000
0.442000 0.398000 0.230000
0.502000 0.400667 0.230000
0.562000 0.403333 0.230000
0.622000 0.406000 0.230000
0.682000 0.408667 0.230000
0.742000 0.411333 0.230000
0.802000 0.414000 0.230000
0.862000 0.416667 0.230000
0.922000 0.419333 0.230000
0.982000 0.422000 0.230000
0.087333 0.440667 0.230000
0.147333 0.443333 0.230000
0.207333 0.446000 0.230000
0.267333 0.448667 0.230000
0.327333 0.451333 0.230000
