app/src/main/assets/luts/vintage.cube
# Yashora 3D LUT
TITLE "Vintage Nostalgia"
LUT_3D_SIZE 6
DOMAIN_MIN 0.0 0.0 0.0
DOMAIN_MAX 1.0 1.0 1.0
0.050000 0.030000 0.080000
0.230000 0.038000 0.080000
0.410000 0.046000 0.080000
0.590000 0.054000 0.080000
0.770000 0.062000 0.080000
0.950000 0.070000 0.080000
0.066000 0.206000 0.080000
0.246000 0.214000 0.080000
0.426000 0.222000 0.080000
0.606000 0.230000 0.080000
0.786000 0.238000 0.080000
0.966000 0.246000 0.080000
0.082000 0.382000 0.080000
0.262000 0.390000 0.080000
0.442000 0.398000 0.080000
0.622000 0.406000 0.080000
0.802000 0.414000 0.080000
0.982000 0.422000 0.080000
0.098000 0.558000 0.080000
0.278000 0.566000 0.080000
0.458000 0.574000 0.080000
0.638000 0.582000 0.080000
0.818000 0.590000 0.080000
0.998000 0.598000 0.080000
0.114000 0.734000 0.080000
0.294000 0.742000 0.080000
0.474000 0.750000 0.080000
0.654000 0.758000 0.080000
0.834000 0.766000 0.080000
1.000000 0.774000 0.080000
0.130000 0.910000 0.080000
0.310000 0.918000 0.080000
0.490000 0.926000 0.080000
0.670000 0.934000 0.080000
0.850000 0.942000 0.080000
1.000000 0.950000 0.080000
0.050000 0.030000 0.230000
0.230000 0.038000 0.230000
0.410000 0.046000 0.230000
0.590000 0.054000 0.230000
0.770000 0.062000 0.230000
0.950000 0.070000 0.230000
0.066000 0.206000 0.230000
0.246000 0.214000 0.230000
0.426000 0.222000 0.230000
0.606000 0.230000 0.230000
0.786000 0.238000 0.230000
0.966000 0.246000 0.230000
0.082000 0.382000 0.230000
0.262000 0.390000 0.230000
0.442000 0.398000 0.230000
0.622000 0.406000 0.230000
0.802000 0.414000 0.230000
0.982000 0.422000 0.230000
0.098000 0.558000 0.230000
0.278000 0.566000 0.230000
0.458000 0.574000 0.230000
0.638000 0.582000 0.230000
0.818000 0.590000 0.230000
0.998000 0.598000 0.230000
0.114000 0.734000 0.230000
0.294000 0.742000 0.230000
0.474000 0.750000 0.230000
0.654000 0.758000 0.230000
0.834000 0.766000 0.230000
1.000000 0.774000 0.230000
0.130000 0.910000 0.230000
0.310000 0.918000 0.230000
0.490000 0.926000 0.230000
0.670000 0.934000 0.230000
0.850000 0.942000 0.230000
1.000000 0.950000 0.230000
0.050000 0.030000 0.380000
0.230000 0.038000 0.380000
0.410000 0.046000 0.380000
0.590000 0.054000 0.380000
0.770000 0.062000 0.380000
0.950000 0.070000 0.380000
0.066000 0.206000 0.380000
0.246000 0.214000 0.380000
0.426000 0.222000 0.380000
0.606000 0.230000 0.380000
0.786000 0.238000 0.380000
0.966000 0.246000 0.380000
0.082000 0.382000 0.380000
0.262000 0.390000 0.380000
0.442000 0.398000 0.380000
0.622000 0.406000 0.380000
0.802000 0.414000 0.380000
0.982000 0.422000 0.380000
0.098000 0.558000 0.380000
0.278000 0.566000 0.380000
0.458000 0.574000 0.380000
0.638000 0.582000 0.380000
0.818000 0.590000 0.380000
0.998000 0.598000 0.380000
0.114000 0.734000 0.380000
0.294000 0.742000 0.380000
0.474000 0.750000 0.380000
0.654000 0.758000 0.380000
0.834000 0.766000 0.380000
1.000000 0.774000 0.380000
0.130000 0.910000 0.380000
0.310000 0.918000 0.380000
0.490000 0.926000 0.380000
0.670000 0.934000 0.380000
0.850000 0.942000 0.380000
1.000000 0.950000 0.380000
0.050000 0.030000 0.530000
0.230000 0.038000 0.530000
0.410000 0.046000 0.530000
0.590000 0.054000 0.530000
0.770000 0.062000 0.530000
0.950000 0.070000 0.530000
0.066000 0.206000 0.530000
0.246000 0.214000 0.530000
0.426000 0.222000 0.530000
0.606000 0.230000 0.530000
0.786000 0.238000 0.530000
0.966000 0.246000 0.530000
0.082000 0.382000 0.530000
0.262000 0.390000 0.530000
0.442000 0.398000 0.530000
0.622000 0.406000 0.530000
0.802000 0.414000 0.530000
0.982000 0.422000 0.530000
0.098000 0.558000 0.530000
0.278000 0.566000 0.530000
0.458000 0.574000 0.530000
0.638000 0.582000 0.530000
0.818000 0.590000 0.530000
0.998000 0.598000 0.530000
0.114000 0.734000 0.530000
0.294000 0.742000 0.530000
0.474000 0.750000 0.530000
0.654000 0.758000 0.530000
0.834000 0.766000 0.530000
1.000000 0.774000 0.530000
0.130000 0.910000 0.530000
0.310000 0.918000 0.530000
0.490000 0.926000 0.530000
0.670000 0.934000 0.530000
0.850000 0.942000 0.530000
1.000000 0.950000 0.530000
0.050000 0.030000 0.680000
0.230000 0.038000 0.680000
0.410000 0.046000 0.680000
0.590000 0.054000 0.680000
0.770000 0.062000 0.680000
0.950000 0.070000 0.680000
0.066000 0.206000 0.680000
0.246000 0.214000 0.680000
0.426000 0.222000 0.680000
0.606000 0.230000 0.680000
0.786000 0.238000 0.680000
0.966000 0.246000 0.680000
0.082000 0.382000 0.680000
0.262000 0.390000 0.680000
0.442000 0.398000 0.680000
0.622000 0.406000 0.680000
0.802000 0.414000 0.680000
0.982000 0.422000 0.680000
0.098000 0.558000 0.680000
0.278000 0.566000 0.680000
0.458000 0.574000 0.680000
0.638000 0.582000 0.680000
0.818000 0.590000 0.680000
0.998000 0.598000 0.680000
0.114000 0.734000 0.680000
0.294000 0.742000 0.680000
0.474000 0.750000 0.680000
0.654000 0.758000 0.680000
0.834000 0.766000 0.680000
1.000000 0.774000 0.680000
0.130000 0.910000 0.680000
0.310000 0.918000 0.680000
0.490000 0.926000 0.680000
0.670000 0.934000 0.680000
0.850000 0.942000 0.680000
1.000000 0.950000 0.680000
0.050000 0.030000 0.830000
0.230000 0.038000 0.830000
0.410000 0.046000 0.830000
0.590000 0.054000 0.830000
0.770000 0.062000 0.830000
0.950000 0.070000 0.830000
0.066000 0.206000 0.830000
0.246000 0.214000 0.830000
0.426000 0.222000 0.830000
0.606000 0.230000 0.830000
0.786000 0.238000 0.830000
0.966000 0.246000 0.830000
0.082000 0.382000 0.830000
0.262000 0.390000 0.830000
0.442000 0.398000 0.830000
0.622000 0.406000 0.830000
0.802000 0.414000 0.830000
0.982000 0.422000 0.830000
0.098000 0.558000 0.830000
0.278000 0.566000 0.830000
0.458000 0.574000 0.830000
0.638000 0.582000 0.830000
0.818000 0.590000 0.830000
0.998000 0.598000 0.830000
0.114000 0.734000 0.830000
0.294000 0.742000 0.830000
0.474000 0.750000 0.830000
0.654000 0.758000 0.830000
0.834000 0.766000 0.830000
1.000000 0.774000 0.830000
0.130000 0.910000 0.830000
0.310000 0.918000 0.830000
0.490000 0.926000 0.830000
0.670000 0.934000 0.830000
0.850000 0.942000 0.830000
1.000000 0.950000 0.830000
