app/src/main/assets/luts/warm_sunset.cube
# Yashora 3D LUT
TITLE "Warm Sunset Glow"
LUT_3D_SIZE 16
DOMAIN_MIN 0.0 0.0 0.0
DOMAIN_MAX 1.0 1.0 1.0
0.040000 0.020000 0.000000
0.113333 0.020000 0.000000
0.186667 0.020000 0.000000
0.260000 0.020000 0.000000
0.333333 0.020000 0.000000
0.406667 0.020000 0.000000
0.480000 0.020000 0.000000
0.553333 0.020000 0.000000
0.626667 0.020000 0.000000
0.700000 0.020000 0.000000
0.773333 0.020000 0.000000
0.846667 0.020000 0.000000
0.920000 0.020000 0.000000
0.993333 0.020000 0.000000
1.000000 0.020000 0.000000
1.000000 0.020000 0.000000
0.040000 0.088000 0.000000
0.113333 0.088000 0.000000
0.186667 0.088000 0.000000
0.260000 0.088000 0.000000
0.333333 0.088000 0.000000
0.406667 0.088000 0.000000
0.480000 0.088000 0.000000
0.553333 0.088000 0.000000
0.626667 0.088000 0.000000
0.700000 0.088000 0.000000
0.773333 0.088000 0.000000
0.846667 0.088000 0.000000
0.920000 0.088000 0.000000
0.993333 0.088000 0.000000
1.000000 0.088000 0.000000
1.000000 0.088000 0.000000
0.040000 0.156000 0.000000
0.113333 0.156000 0.000000
0.186667 0.156000 0.000000
0.260000 0.156000 0.000000
0.333333 0.156000 0.000000
0.406667 0.156000 0.000000
0.480000 0.156000 0.000000
0.553333 0.156000 0.000000
0.626667 0.156000 0.000000
0.700000 0.156000 0.000000
0.773333 0.156000 0.000000
0.846667 0.156000 0.000000
0.920000 0.156000 0.000000
0.993333 0.156000 0.000000
1.000000 0.156000 0.000000
1.000000 0.156000 0.000000
0.040000 0.224000 0.000000
0.113333 0.224000 0.000000
0.186667 0.224000 0.000000
0.260000 0.224000 0.000000
0.333333 0.224000 0.000000
0.406667 0.224000 0.000000
0.480000 0.224000 0.000000
0.553333 0.224000 0.000000
0.626667 0.224000 0.000000
0.700000 0.224000 0.000000
0.773333 0.224000 0.000000
0.846667 0.224000 0.000000
0.920000 0.224000 0.000000
0.993333 0.224000 0.000000
1.000000 0.224000 0.000000
1.000000 0.224000 0.000000
0.040000 0.292000 0.000000
0.113333 0.292000 0.000000
0.186667 0.292000 0.000000
0.260000 0.292000 0.000000
0.333333 0.292000 0.000000
0.406667 0.292000 0.000000
0.480000 0.292000 0.000000
0.553333 0.292000 0.000000
0.626667 0.292000 0.000000
0.700000 0.292000 0.000000
0.773333 0.292000 0.000000
0.846667 0.292000 0.000000
0.920000 0.292000 0.000000
0.993333 0.292000 0.000000
1.000000 0.292000 0.000000
1.000000 0.292000 0.000000
0.040000 0.360000 0.000000
0.113333 0.360000 0.000000
0.186667 0.360000 0.000000
0.260000 0.360000 0.000000
0.333333 0.360000 0.000000
0.406667 0.360000 0.000000
0.480000 0.360000 0.000000
0.553333 0.360000 0.000000
0.626667 0.360000 0.000000
0.700000 0.360000 0.000000
0.773333 0.360000 0.000000
0.846667 0.360000 0.000000
0.920000 0.360000 0.000000
0.993333 0.360000 0.000000
1.000000 0.360000 0.000000
1.000000 0.360000 0.000000
0.040000 0.428000 0.000000
0.113333 0.428000 0.000000
0.186667 0.428000 0.000000
0.260000 0.428000 0.000000
0.333333 0.428000 0.000000
0.406667 0.428000 0.000000
0.480000 0.428000 0.000000
0.553333 0.428000 0.000000
0.626667 0.428000 0.000000
0.700000 0.428000 0.000000
0.773333 0.428000 0.000000
0.846667 0.428000 0.000000
0.920000 0.428000 0.000000
0.993333 0.428000 0.000000
1.000000 0.428000 0.000000
1.000000 0.428000 0.000000
0.040000 0.496000 0.000000
0.113333 0.496000 0.000000
0.186667 0.496000 0.000000
0.260000 0.496000 0.000000
0.333333 0.496000 0.000000
0.406667 0.496000 0.000000
0.480000 0.496000 0.000000
0.553333 0.496000 0.000000
0.626667 0.496000 0.000000
0.700000 0.496000 0.000000
0.773333 0.496000 0.000000
0.846667 0.496000 0.000000
0.920000 0.496000 0.000000
0.993333 0.496000 0.000000
1.000000 0.496000 0.000000
1.000000 0.496000 0.000000
0.040000 0.564000 0.000000
0.113333 0.564000 0.000000
0.186667 0.564000 0.000000
0.260000 0.564000 0.000000
0.333333 0.564000 0.000000
0.406667 0.564000 0.000000
0.480000 0.564000 0.000000
0.553333 0.564000 0.000000
0.626667 0.564000 0.000000
0.700000 0.564000 0.000000
0.773333 0.564000 0.000000
0.846667 0.564000 0.000000
0.920000 0.564000 0.000000
0.993333 0.564000 0.000000
1.000000 0.564000 0.000000
1.000000 0.564000 0.000000
0.040000 0.632000 0.000000
0.113333 0.632000 0.000000
0.186667 0.632000 0.000000
0.260000 0.632000 0.000000
0.333333 0.632000 0.000000
0.406667 0.632000 0.000000
0.480000 0.632000 0.000000
0.553333 0.632000 0.000000
0.626667 0.632000 0.000000
0.700000 0.632000 0.000000
0.773333 0.632000 0.000000
0.846667 0.632000 0.000000
0.920000 0.632000 0.000000
0.993333 0.632000 0.000000
1.000000 0.632000 0.000000
1.000000 0.632000 0.000000
0.040000 0.700000 0.000000
0.113333 0.700000 0.000000
0.186667 0.700000 0.000000
0.260000 0.700000 0.000000
0.333333 0.700000 0.000000
0.406667 0.700000 0.000000
0.480000 0.700000 0.000000
0.553333 0.700000 0.000000
0.626667 0.700000 0.000000
0.700000 0.700000 0.000000
0.773333 0.700000 0.000000
0.846667 0.700000 0.000000
0.920000 0.700000 0.000000
0.993333 0.700000 0.000000
1.000000 0.700000 0.000000
1.000000 0.700000 0.000000
0.040000 0.768000 0.000000
0.113333 0.768000 0.000000
0.186667 0.768000 0.000000
0.260000 0.768000 0.000000
0.333333 0.768000 0.000000
0.406667 0.768000 0.000000
0.480000 0.768000 0.000000
0.553333 0.768000 0.000000
0.626667 0.768000 0.000000
0.700000 0.768000 0.000000
0.773333 0.768000 0.000000
0.846667 0.768000 0.000000
0.920000 0.768000 0.000000
0.993333 0.768000 0.000000
1.000000 0.768000 0.000000
1.000000 0.768000 0.000000
0.040000 0.836000 0.000000
0.113333 0.836000 0.000000
0.186667 0.836000 0.000000
0.260000 0.836000 0.000000
0.333333 0.836000 0.000000
0.406667 0.836000 0.000000
0.480000 0.836000 0.000000
0.553333 0.836000 0.000000
0.626667 0.836000 0.000000
0.700000 0.836000 0.000000
0.773333 0.836000 0.000000
0.846667 0.836000 0.000000
0.920000 0.836000 0.000000
0.993333 0.836000 0.000000
1.000000 0.836000 0.000000
1.000000 0.836000 0.000000
0.040000 0.904000 0.000000
0.113333 0.904000 0.000000
0.186667 0.904000 0.000000
0.260000 0.904000 0.000000
0.333333 0.904000 0.000000
0.406667 0.904000 0.000000
0.480000 0.904000 0.000000
0.553333 0.904000 0.000000
0.626667 0.904000 0.000000
0.700000 0.904000 0.000000
0.773333 0.904000 0.000000
0.846667 0.904000 0.000000
0.920000 0.904000 0.000000
0.993333 0.904000 0.000000
1.000000 0.904000 0.000000
1.000000 0.904000 0.000000
0.040000 0.972000 0.000000
0.113333 0.972000 0.000000
0.186667 0.972000 0.000000
0.260000 0.972000 0.000000
0.333333 0.972000 0.000000
0.406667 0.972000 0.000000
0.480000 0.972000 0.000000
0.553333 0.972000 0.000000
0.626667 0.972000 0.000000
0.700000 0.972000 0.000000
0.773333 0.972000 0.000000
0.846667 0.972000 0.000000
0.920000 0.972000 0.000000
0.993333 0.972000 0.000000
1.000000 0.972000 0.000000
1.000000 0.972000 0.000000
0.040000 1.000000 0.000000
0.113333 1.000000 0.000000
0.186667 1.000000 0.000000
0.260000 1.000000 0.000000
0.333333 1.000000 0.000000
0.406667 1.000000 0.000000
0.480000 1.000000 0.000000
0.553333 1.000000 0.000000
0.626667 1.000000 0.000000
0.700000 1.000000 0.000000
0.773333 1.000000 0.000000
0.846667 1.000000 0.000000
0.920000 1.000000 0.000000
0.993333 1.000000 0.000000
1.000000 1.000000 0.000000
1.000000 1.000000 0.000000
0.040000 0.020000 0.054667
0.113333 0.020000 0.054667
0.186667 0.020000 0.054667
0.260000 0.020000 0.054667
0.333333 0.020000 0.054667
0.406667 0.020000 0.054667
0.480000 0.020000 0.054667
0.553333 0.020000 0.054667
0.626667 0.020000 0.054667
0.700000 0.020000 0.054667
0.773333 0.020000 0.054667
0.846667 0.020000 0.054667
0.920000 0.020000 0.054667
0.993333 0.020000 0.054667
1.000000 0.020000 0.054667
1.000000 0.020000 0.054667
0.040000 0.088000 0.054667
0.113333 0.088000 0.054667
0.186667 0.088000 0.054667
0.260000 0.088000 0.054667
0.333333 0.088000 0.054667
0.406667 0.088000 0.054667
0.480000 0.088000 0.054667
0.553333 0.088000 0.054667
0.626667 0.088000 0.054667
0.700000 0.088000 0.054667
0.773333 0.088000 0.054667
0.846667 0.088000 0.054667
0.920000 0.088000 0.054667
0.993333 0.088000 0.054667
1.000000 0.088000 0.054667
1.000000 0.088000 0.054667
0.040000 0.156000 0.054667
0.113333 0.156000 0.054667
0.186667 0.156000 0.054667
0.260000 0.156000 0.054667
0.333333 0.156000 0.054667
0.406667 0.156000 0.054667
0.480000 0.156000 0.054667
0.553333 0.156000 0.054667
0.626667 0.156000 0.054667
0.700000 0.156000 0.054667
0.773333 0.156000 0.054667
0.846667 0.156000 0.054667
0.920000 0.156000 0.054667
0.993333 0.156000 0.054667
1.000000 0.156000 0.054667
1.000000 0.156000 0.054667
0.040000 0.224000 0.054667
0.113333 0.224000 0.054667
0.186667 0.224000 0.054667
0.260000 0.224000 0.054667
0.333333 0.224000 0.054667
0.406667 0.224000 0.054667
0.480000 0.224000 0.054667
0.553333 0.224000 0.054667
0.626667 0.224000 0.054667
0.700000 0.224000 0.054667
0.773333 0.224000 0.054667
0.846667 0.224000 0.054667
0.920000 0.224000 0.054667
0.993333 0.224000 0.054667
1.000000 0.224000 0.054667
1.000000 0.224000 0.054667
0.040000 0.292000 0.054667
0.113333 0.292000 0.054667
0.186667 0.292000 0.054667
0.260000 0.292000 0.054667
0.333333 0.292000 0.054667
0.406667 0.292000 0.054667
0.480000 0.292000 0.054667
0.553333 0.292000 0.054667
0.626667 0.292000 0.054667
0.700000 0.292000 0.054667
0.773333 0.292000 0.054667
0.846667 0.292000 0.054667
0.920000 0.292000 0.054667
0.993333 0.292000 0.054667
1.000000 0.292000 0.054667
1.000000 0.292000 0.054667
0.040000 0.360000 0.054667
0.113333 0.360000 0.054667
0.186667 0.360000 0.054667
0.260000 0.360000 0.054667
0.333333 0.360000 0.054667
0.406667 0.360000 0.054667
0.480000 0.360000 0.054667
0.553333 0.360000 0.054667
0.626667 0.360000 0.054667
0.700000 0.360000 0.054667
0.773333 0.360000 0.054667
0.846667 0.360000 0.054667
0.920000 0.360000 0.054667
0.993333 0.360000 0.054667
1.000000 0.360000 0.054667
1.000000 0.360000 0.054667
0.040000 0.428000 0.054667
0.113333 0.428000 0.054667
0.186667 0.428000 0.054667
0.260000 0.428000 0.054667
0.333333 0.428000 0.054667
0.406667 0.428000 0.054667
0.480000 0.428000 0.054667
0.553333 0.428000 0.054667
0.626667 0.428000 0.054667
0.700000 0.428000 0.054667
0.773333 0.428000 0.054667
0.846667 0.428000 0.054667
0.920000 0.428000 0.054667
0.993333 0.428000 0.054667
1.000000 0.428000 0.054667
1.000000 0.428000 0.054667
0.040000 0.496000 0.054667
0.113333 0.496000 0.054667
0.186667 0.496000 0.054667
0.260000 0.496000 0.054667
0.333333 0.496000 0.054667
0.406667 0.496000 0.054667
0.480000 0.496000 0.054667
0.553333 0.496000 0.054667
0.626667 0.496000 0.054667
0.700000 0.496000 0.054667
0.773333 0.496000 0.054667
0.846667 0.496000 0.054667
0.920000 0.496000 0.054667
0.993333 0.496000 0.054667
1.000000 0.496000 0.054667
1.000000 0.496000 0.054667
0.040000 0.564000 0.054667
0.113333 0.564000 0.054667
0.186667 0.564000 0.054667
0.260000 0.564000 0.054667
0.333333 0.564000 0.054667
0.406667 0.564000 0.054667
0.480000 0.564000 0.054667
0.553333 0.564000 0.054667
0.626667 0.564000 0.054667
0.700000 0.564000 0.054667
0.773333 0.564000 0.054667
0.846667 0.564000 0.054667
0.920000 0.564000 0.054667
0.993333 0.564000 0.054667
1.000000 0.564000 0.054667
1.000000 0.564000 0.054667
0.040000 0.632000 0.054667
0.113333 0.632000 0.054667
0.186667 0.632000 0.054667
0.260000 0.632000 0.054667
0.333333 0.632000 0.054667
0.406667 0.632000 0.054667
0.480000 0.632000 0.054667
0.553333 0.632000 0.054667
0.626667 0.632000 0.054667
0.700000 0.632000 0.054667
0.773333 0.632000 0.054667
0.846667 0.632000 0.054667
0.920000 0.632000 0.054667
0.993333 0.632000 0.054667
1.000000 0.632000 0.054667
1.000000 0.632000 0.054667
0.040000 0.700000 0.054667
0.113333 0.700000 0.054667
0.186667 0.700000 0.054667
0.260000 0.700000 0.054667
0.333333 0.700000 0.054667
0.406667 0.700000 0.054667
0.480000 0.700000 0.054667
0.553333 0.700000 0.054667
0.626667 0.700000 0.054667
0.700000 0.700000 0.054667
0.773333 0.700000 0.054667
0.846667 0.700000 0.054667
0.920000 0.700000 0.054667
0.993333 0.700000 0.054667
1.000000 0.700000 0.054667
1.000000 0.700000 0.054667
0.040000 0.768000 0.054667
0.113333 0.768000 0.054667
0.186667 0.768000 0.054667
0.260000 0.768000 0.054667
0.333333 0.768000 0.054667
0.406667 0.768000 0.054667
0.480000 0.768000 0.054667
0.553333 0.768000 0.054667
0.626667 0.768000 0.054667
0.700000 0.768000 0.054667
0.773333 0.768000 0.054667
0.846667 0.768000 0.054667
0.920000 0.768000 0.054667
0.993333 0.768000 0.054667
1.000000 0.768000 0.054667
1.000000 0.768000 0.054667
0.040000 0.836000 0.054667
0.113333 0.836000 0.054667
0.186667 0.836000 0.054667
0.260000 0.836000 0.054667
0.333333 0.836000 0.054667
0.406667 0.836000 0.054667
0.480000 0.836000 0.054667
0.553333 0.836000 0.054667
0.626667 0.836000 0.054667
0.700000 0.836000 0.054667
0.773333 0.836000 0.054667
0.846667 0.836000 0.054667
0.920000 0.836000 0.054667
0.993333 0.836000 0.054667
1.000000 0.836000 0.054667
1.000000 0.836000 0.054667
0.040000 0.904000 0.054667
0.113333 0.904000 0.054667
0.186667 0.904000 0.054667
0.260000 0.904000 0.054667
0.333333 0.904000 0.054667
0.406667 0.904000 0.054667
0.480000 0.904000 0.054667
0.553333 0.904000 0.054667
0.626667 0.904000 0.054667
0.700000 0.904000 0.054667
0.773333 0.904000 0.054667
0.846667 0.904000 0.054667
0.920000 0.904000 0.054667
0.993333 0.904000 0.054667
1.000000 0.904000 0.054667
1.000000 0.904000 0.054667
0.040000 0.972000 0.054667
0.113333 0.972000 0.054667
0.186667 0.972000 0.054667
0.260000 0.972000 0.054667
0.333333 0.972000 0.054667
0.406667 0.972000 0.054667
0.480000 0.972000 0.054667
0.553333 0.972000 0.054667
0.626667 0.972000 0.054667
0.700000 0.972000 0.054667
0.773333 0.972000 0.054667
0.846667 0.972000 0.054667
0.920000 0.972000 0.054667
0.993333 0.972000 0.054667
1.000000 0.972000 0.054667
1.000000 0.972000 0.054667
0.040000 1.000000 0.054667
0.113333 1.000000 0.054667
0.186667 1.000000 0.054667
0.260000 1.000000 0.054667
0.333333 1.000000 0.054667
0.406667 1.000000 0.054667
0.480000 1.000000 0.054667
0.553333 1.000000 0.054667
0.626667 1.000000 0.054667
0.700000 1.000000 0.054667
0.773333 1.000000 0.054667
0.846667 1.000000 0.054667
0.920000 1.000000 0.054667
0.993333 1.000000 0.054667
1.000000 1.000000 0.054667
1.000000 1.000000 0.054667
0.040000 0.020000 0.109333
0.113333 0.020000 0.109333
0.186667 0.020000 0.109333
0.260000 0.020000 0.109333
0.333333 0.020000 0.109333
0.406667 0.020000 0.109333
0.480000 0.020000 0.109333
0.553333 0.020000 0.109333
0.626667 0.020000 0.109333
0.700000 0.020000 0.109333
0.773333 0.020000 0.109333
0.846667 0.020000 0.109333
0.920000 0.020000 0.109333
0.993333 0.020000 0.109333
1.000000 0.020000 0.109333
1.000000 0.020000 0.109333
0.040000 0.088000 0.109333
0.113333 0.088000 0.109333
0.186667 0.088000 0.109333
0.260000 0.088000 0.109333
0.333333 0.088000 0.109333
0.406667 0.088000 0.109333
0.480000 0.088000 0.109333
0.553333 0.088000 0.109333
0.626667 0.088000 0.109333
0.700000 0.088000 0.109333
0.773333 0.088000 0.109333
0.846667 0.088000 0.109333
0.920000 0.088000 0.109333
0.993333 0.088000 0.109333
1.000000 0.088000 0.109333
1.000000 0.088000 0.109333
0.040000 0.156000 0.109333
0.113333 0.156000 0.109333
0.186667 0.156000 0.109333
0.260000 0.156000 0.109333
0.333333 0.156000 0.109333
0.406667 0.156000 0.109333
0.480000 0.156000 0.109333
0.553333 0.156000 0.109333
0.626667 0.156000 0.109333
0.700000 0.156000 0.109333
0.773333 0.156000 0.109333
0.846667 0.156000 0.109333
0.920000 0.156000 0.109333
0.993333 0.156000 0.109333
1.000000 0.156000 0.109333
1.000000 0.156000 0.109333
0.040000 0.224000 0.109333
0.113333 0.224000 0.109333
0.186667 0.224000 0.109333
0.260000 0.224000 0.109333
0.333333 0.224000 0.109333
0.406667 0.224000 0.109333
0.480000 0.224000 0.109333
0.553333 0.224000 0.109333
0.626667 0.224000 0.109333
0.700000 0.224000 0.109333
0.773333 0.224000 0.109333
0.846667 0.224000 0.109333
0.920000 0.224000 0.109333
0.993333 0.224000 0.109333
1.000000 0.224000 0.109333
1.000000 0.224000 0.109333
0.040000 0.292000 0.109333
0.113333 0.292000 0.109333
0.186667 0.292000 0.109333
0.260000 0.292000 0.109333
0.333333 0.292000 0.109333
0.406667 0.292000 0.109333
0.480000 0.292000 0.109333
0.553333 0.292000 0.109333
0.626667 0.292000 0.109333
0.700000 0.292000 0.109333
0.773333 0.292000 0.109333
0.846667 0.292000 0.109333
0.920000 0.292000 0.109333
0.993333 0.292000 0.109333
1.000000 0.292000 0.109333
1.000000 0.292000 0.109333
0.040000 0.360000 0.109333
0.113333 0.360000 0.109333
0.186667 0.360000 0.109333
0.260000 0.360000 0.109333
0.333333 0.360000 0.109333
0.406667 0.360000 0.109333
0.480000 0.360000 0.109333
0.553333 0.360000 0.109333
0.626667 0.360000 0.109333
0.700000 0.360000 0.109333
0.773333 0.360000 0.109333
0.846667 0.360000 0.109333
0.920000 0.360000 0.109333
0.993333 0.360000 0.109333
1.000000 0.360000 0.109333
1.000000 0.360000 0.109333
0.040000 0.428000 0.109333
0.113333 0.428000 0.109333
0.186667 0.428000 0.109333
0.260000 0.428000 0.109333
0.333333 0.428000 0.109333
0.406667 0.428000 0.109333
0.480000 0.428000 0.109333
0.553333 0.428000 0.109333
0.626667 0.428000 0.109333
0.700000 0.428000 0.109333
0.773333 0.428000 0.109333
0.846667 0.428000 0.109333
0.920000 0.428000 0.109333
0.993333 0.428000 0.109333
1.000000 0.428000 0.109333
1.000000 0.428000 0.109333
0.040000 0.496000 0.109333
0.113333 0.496000 0.109333
0.186667 0.496000 0.109333
0.260000 0.496000 0.109333
0.333333 0.496000 0.109333
0.406667 0.496000 0.109333
0.480000 0.496000 0.109333
0.553333 0.496000 0.109333
0.626667 0.496000 0.109333
0.700000 0.496000 0.109333
0.773333 0.496000 0.109333
0.846667 0.496000 0.109333
0.920000 0.496000 0.109333
0.993333 0.496000 0.109333
1.000000 0.496000 0.109333
1.000000 0.496000 0.109333
0.040000 0.564000 0.109333
0.113333 0.564000 0.109333
0.186667 0.564000 0.109333
0.260000 0.564000 0.109333
0.333333 0.564000 0.109333
0.406667 0.564000 0.109333
0.480000 0.564000 0.109333
0.553333 0.564000 0.109333
0.626667 0.564000 0.109333
0.700000 0.564000 0.109333
0.773333 0.564000 0.109333
0.846667 0.564000 0.109333
0.920000 0.564000 0.109333
0.993333 0.564000 0.109333
1.000000 0.564000 0.109333
1.000000 0.564000 0.109333
0.040000 0.632000 0.109333
0.113333 0.632000 0.109333
0.186667 0.632000 0.109333
0.260000 0.632000 0.109333
0.333333 0.632000 0.109333
0.406667 0.632000 0.109333
0.480000 0.632000 0.109333
0.553333 0.632000 0.109333
0.626667 0.632000 0.109333
0.700000 0.632000 0.109333
0.773333 0.632000 0.109333
0.846667 0.632000 0.109333
0.920000 0.632000 0.109333
0.993333 0.632000 0.109333
1.000000 0.632000 0.109333
1.000000 0.632000 0.109333
0.040000 0.700000 0.109333
0.113333 0.700000 0.109333
0.186667 0.700000 0.109333
0.260000 0.700000 0.109333
0.333333 0.700000 0.109333
0.406667 0.700000 0.109333
0.480000 0.700000 0.109333
0.553333 0.700000 0.109333
0.626667 0.700000 0.109333
0.700000 0.700000 0.109333
0.773333 0.700000 0.109333
0.846667 0.700000 0.109333
0.920000 0.700000 0.109333
0.993333 0.700000 0.109333
1.000000 0.700000 0.109333
1.000000 0.700000 0.109333
0.040000 0.768000 0.109333
0.113333 0.768000 0.109333
0.186667 0.768000 0.109333
0.260000 0.768000 0.109333
0.333333 0.768000 0.109333
0.406667 0.768000 0.109333
0.480000 0.768000 0.109333
0.553333 0.768000 0.109333
0.626667 0.768000 0.109333
0.700000 0.768000 0.109333
0.773333 0.768000 0.109333
0.846667 0.768000 0.109333
0.920000 0.768000 0.109333
0.993333 0.768000 0.109333
1.000000 0.768000 0.109333
1.000000 0.768000 0.109333
0.040000 0.836000 0.109333
0.113333 0.836000 0.109333
0.186667 0.836000 0.109333
0.260000 0.836000 0.109333
0.333333 0.836000 0.109333
0.406667 0.836000 0.109333
0.480000 0.836000 0.109333
0.553333 0.836000 0.109333
0.626667 0.836000 0.109333
0.700000 0.836000 0.109333
0.773333 0.836000 0.109333
0.846667 0.836000 0.109333
0.920000 0.836000 0.109333
0.993333 0.836000 0.109333
1.000000 0.836000 0.109333
1.000000 0.836000 0.109333
0.040000 0.904000 0.109333
0.113333 0.904000 0.109333
0.186667 0.904000 0.109333
0.260000 0.904000 0.109333
0.333333 0.904000 0.109333
0.406667 0.904000 0.109333
0.480000 0.904000 0.109333
0.553333 0.904000 0.109333
0.626667 0.904000 0.109333
0.700000 0.904000 0.109333
0.773333 0.904000 0.109333
0.846667 0.904000 0.109333
0.920000 0.904000 0.109333
0.993333 0.904000 0.109333
1.000000 0.904000 0.109333
1.000000 0.904000 0.109333
0.040000 0.972000 0.109333
0.113333 0.972000 0.109333
0.186667 0.972000 0.109333
0.260000 0.972000 0.109333
0.333333 0.972000 0.109333
0.406667 0.972000 0.109333
0.480000 0.972000 0.109333
0.553333 0.972000 0.109333
0.626667 0.972000 0.109333
0.700000 0.972000 0.109333
0.773333 0.972000 0.109333
0.846667 0.972000 0.109333
0.920000 0.972000 0.109333
0.993333 0.972000 0.109333
1.000000 0.972000 0.109333
1.000000 0.972000 0.109333
0.040000 1.000000 0.109333
0.113333 1.000000 0.109333
0.186667 1.000000 0.109333
0.260000 1.000000 0.109333
0.333333 1.000000 0.109333
0.406667 1.000000 0.109333
0.480000 1.000000 0.109333
0.553333 1.000000 0.109333
0.626667 1.000000 0.109333
0.700000 1.000000 0.109333
0.773333 1.000000 0.109333
0.846667 1.000000 0.109333
0.920000 1.000000 0.109333
0.993333 1.000000 0.109333
1.000000 1.000000 0.109333
1.000000 1.000000 0.109333
0.040000 0.020000 0.164000
0.113333 0.020000 0.164000
0.186667 0.020000 0.164000
0.260000 0.020000 0.164000
0.333333 0.020000 0.164000
0.406667 0.020000 0.164000
0.480000 0.020000 0.164000
0.553333 0.020000 0.164000
0.626667 0.020000 0.164000
0.700000 0.020000 0.164000
0.773333 0.020000 0.164000
0.846667 0.020000 0.164000
0.920000 0.020000 0.164000
0.993333 0.020000 0.164000
1.000000 0.020000 0.164000
1.000000 0.020000 0.164000
0.040000 0.088000 0.164000
0.113333 0.088000 0.164000
0.186667 0.088000 0.164000
0.260000 0.088000 0.164000
0.333333 0.088000 0.164000
0.406667 0.088000 0.164000
0.480000 0.088000 0.164000
0.553333 0.088000 0.164000
0.626667 0.088000 0.164000
0.700000 0.088000 0.164000
0.773333 0.088000 0.164000
0.846667 0.088000 0.164000
0.920000 0.088000 0.164000
0.993333 0.088000 0.164000
1.000000 0.088000 0.164000
1.000000 0.088000 0.164000
0.040000 0.156000 0.164000
0.113333 0.156000 0.164000
0.186667 0.156000 0.164000
0.260000 0.156000 0.164000
0.333333 0.156000 0.164000
0.406667 0.156000 0.164000
0.480000 0.156000 0.164000
0.553333 0.156000 0.164000
0.626667 0.156000 0.164000
0.700000 0.156000 0.164000
0.773333 0.156000 0.164000
0.846667 0.156000 0.164000
0.920000 0.156000 0.164000
0.993333 0.156000 0.164000
1.000000 0.156000 0.164000
1.000000 0.156000 0.164000
0.040000 0.224000 0.164000
0.113333 0.224000 0.164000
0.186667 0.224000 0.164000
0.260000 0.224000 0.164000
0.333333 0.224000 0.164000
0.406667 0.224000 0.164000
0.480000 0.224000 0.164000
0.553333 0.224000 0.164000
0.626667 0.224000 0.164000
0.700000 0.224000 0.164000
0.773333 0.224000 0.164000
0.846667 0.224000 0.164000
0.920000 0.224000 0.164000
0.993333 0.224000 0.164000
1.000000 0.224000 0.164000
1.000000 0.224000 0.164000
0.040000 0.292000 0.164000
0.113333 0.292000 0.164000
0.186667 0.292000 0.164000
0.260000 0.292000 0.164000
0.333333 0.292000 0.164000
0.406667 0.292000 0.164000
0.480000 0.292000 0.164000
0.553333 0.292000 0.164000
0.626667 0.292000 0.164000
0.700000 0.292000 0.164000
0.773333 0.292000 0.164000
0.846667 0.292000 0.164000
0.920000 0.292000 0.164000
0.993333 0.292000 0.164000
1.000000 0.292000 0.164000
1.000000 0.292000 0.164000
0.040000 0.360000 0.164000
0.113333 0.360000 0.164000
0.186667 0.360000 0.164000
0.260000 0.360000 0.164000
0.333333 0.360000 0.164000
0.406667 0.360000 0.164000
0.480000 0.360000 0.164000
0.553333 0.360000 0.164000
0.626667 0.360000 0.164000
0.700000 0.360000 0.164000
0.773333 0.360000 0.164000
0.846667 0.360000 0.164000
0.920000 0.360000 0.164000
0.993333 0.360000 0.164000
1.000000 0.360000 0.164000
1.000000 0.360000 0.164000
0.040000 0.428000 0.164000
0.113333 0.428000 0.164000
0.186667 0.428000 0.164000
0.260000 0.428000 0.164000
0.333333 0.428000 0.164000
0.406667 0.428000 0.164000
0.480000 0.428000 0.164000
0.553333 0.428000 0.164000
0.626667 0.428000 0.164000
0.700000 0.428000 0.164000
0.773333 0.428000 0.164000
0.846667 0.428000 0.164000
0.920000 0.428000 0.164000
0.993333 0.428000 0.164000
1.000000 0.428000 0.164000
1.000000 0.428000 0.164000
0.040000 0.496000 0.164000
0.113333 0.496000 0.164000
0.186667 0.496000 0.164000
0.260000 0.496000 0.164000
0.333333 0.496000 0.164000
