app/src/main/assets/luts/warm_sunset.cube
# Yashora 3D LUT
TITLE "Warm Sunset Glow"
LUT_3D_SIZE 6
DOMAIN_MIN 0.0 0.0 0.0
DOMAIN_MAX 1.0 1.0 1.0
0.040000 0.020000 0.000000
0.260000 0.020000 0.000000
0.480000 0.020000 0.000000
0.700000 0.020000 0.000000
0.920000 0.020000 0.000000
1.000000 0.020000 0.000000
0.040000 0.224000 0.000000
0.260000 0.224000 0.000000
0.480000 0.224000 0.000000
0.700000 0.224000 0.000000
0.920000 0.224000 0.000000
1.000000 0.224000 0.000000
0.040000 0.428000 0.000000
0.260000 0.428000 0.000000
0.480000 0.428000 0.000000
0.700000 0.428000 0.000000
0.920000 0.428000 0.000000
1.000000 0.428000 0.000000
0.040000 0.632000 0.000000
0.260000 0.632000 0.000000
0.480000 0.632000 0.000000
0.700000 0.632000 0.000000
0.920000 0.632000 0.000000
1.000000 0.632000 0.000000
0.040000 0.836000 0.000000
0.260000 0.836000 0.000000
0.480000 0.836000 0.000000
0.700000 0.836000 0.000000
0.920000 0.836000 0.000000
1.000000 0.836000 0.000000
0.040000 1.000000 0.000000
0.260000 1.000000 0.000000
0.480000 1.000000 0.000000
0.700000 1.000000 0.000000
0.920000 1.000000 0.000000
1.000000 1.000000 0.000000
0.040000 0.020000 0.164000
0.260000 0.020000 0.164000
0.480000 0.020000 0.164000
0.700000 0.020000 0.164000
0.920000 0.020000 0.164000
1.000000 0.020000 0.164000
0.040000 0.224000 0.164000
0.260000 0.224000 0.164000
0.480000 0.224000 0.164000
0.700000 0.224000 0.164000
0.920000 0.224000 0.164000
1.000000 0.224000 0.164000
0.040000 0.428000 0.164000
0.260000 0.428000 0.164000
0.480000 0.428000 0.164000
0.700000 0.428000 0.164000
0.920000 0.428000 0.164000
1.000000 0.428000 0.164000
0.040000 0.632000 0.164000
0.260000 0.632000 0.164000
0.480000 0.632000 0.164000
0.700000 0.632000 0.164000
0.920000 0.632000 0.164000
1.000000 0.632000 0.164000
0.040000 0.836000 0.164000
0.260000 0.836000 0.164000
0.480000 0.836000 0.164000
0.700000 0.836000 0.164000
0.920000 0.836000 0.164000
1.000000 0.836000 0.164000
0.040000 1.000000 0.164000
0.260000 1.000000 0.164000
0.480000 1.000000 0.164000
0.700000 1.000000 0.164000
0.920000 1.000000 0.164000
1.000000 1.000000 0.164000
0.040000 0.020000 0.328000
0.260000 0.020000 0.328000
0.480000 0.020000 0.328000
0.700000 0.020000 0.328000
0.920000 0.020000 0.328000
1.000000 0.020000 0.328000
0.040000 0.224000 0.328000
0.260000 0.224000 0.328000
0.480000 0.224000 0.328000
0.700000 0.224000 0.328000
0.920000 0.224000 0.328000
1.000000 0.224000 0.328000
0.040000 0.428000 0.328000
0.260000 0.428000 0.328000
0.480000 0.428000 0.328000
0.700000 0.428000 0.328000
0.920000 0.428000 0.328000
1.000000 0.428000 0.328000
0.040000 0.632000 0.328000
0.260000 0.632000 0.328000
0.480000 0.632000 0.328000
0.700000 0.632000 0.328000
0.920000 0.632000 0.328000
1.000000 0.632000 0.328000
0.040000 0.836000 0.328000
0.260000 0.836000 0.328000
0.480000 0.836000 0.328000
0.700000 0.836000 0.328000
0.920000 0.836000 0.328000
1.000000 0.836000 0.328000
0.040000 1.000000 0.328000
0.260000 1.000000 0.328000
0.480000 1.000000 0.328000
0.700000 1.000000 0.328000
0.920000 1.000000 0.328000
1.000000 1.000000 0.328000
0.040000 0.020000 0.492000
0.260000 0.020000 0.492000
0.480000 0.020000 0.492000
0.700000 0.020000 0.492000
0.920000 0.020000 0.492000
1.000000 0.020000 0.492000
0.040000 0.224000 0.492000
0.260000 0.224000 0.492000
0.480000 0.224000 0.492000
0.700000 0.224000 0.492000
0.920000 0.224000 0.492000
1.000000 0.224000 0.492000
0.040000 0.428000 0.492000
0.260000 0.428000 0.492000
0.480000 0.428000 0.492000
0.700000 0.428000 0.492000
0.920000 0.428000 0.492000
1.000000 0.428000 0.492000
0.040000 0.632000 0.492000
0.260000 0.632000 0.492000
0.480000 0.632000 0.492000
0.700000 0.632000 0.492000
0.920000 0.632000 0.492000
1.000000 0.632000 0.492000
0.040000 0.836000 0.492000
0.260000 0.836000 0.492000
0.480000 0.836000 0.492000
0.700000 0.836000 0.492000
0.920000 0.836000 0.492000
1.000000 0.836000 0.492000
0.040000 1.000000 0.492000
0.260000 1.000000 0.492000
0.480000 1.000000 0.492000
0.700000 1.000000 0.492000
0.920000 1.000000 0.492000
1.000000 1.000000 0.492000
0.040000 0.020000 0.656000
0.260000 0.020000 0.656000
0.480000 0.020000 0.656000
0.700000 0.020000 0.656000
0.920000 0.020000 0.656000
1.000000 0.020000 0.656000
0.040000 0.224000 0.656000
0.260000 0.224000 0.656000
0.480000 0.224000 0.656000
0.700000 0.224000 0.656000
0.920000 0.224000 0.656000
1.000000 0.224000 0.656000
0.040000 0.428000 0.656000
0.260000 0.428000 0.656000
0.480000 0.428000 0.656000
0.700000 0.428000 0.656000
0.920000 0.428000 0.656000
1.000000 0.428000 0.656000
0.040000 0.632000 0.656000
0.260000 0.632000 0.656000
0.480000 0.632000 0.656000
0.700000 0.632000 0.656000
0.920000 0.632000 0.656000
1.000000 0.632000 0.656000
0.040000 0.836000 0.656000
0.260000 0.836000 0.656000
0.480000 0.836000 0.656000
0.700000 0.836000 0.656000
0.920000 0.836000 0.656000
1.000000 0.836000 0.656000
0.040000 1.000000 0.656000
0.260000 1.000000 0.656000
0.480000 1.000000 0.656000
0.700000 1.000000 0.656000
0.920000 1.000000 0.656000
1.000000 1.000000 0.656000
0.040000 0.020000 0.820000
0.260000 0.020000 0.820000
0.480000 0.020000 0.820000
0.700000 0.020000 0.820000
0.920000 0.020000 0.820000
1.000000 0.020000 0.820000
0.040000 0.224000 0.820000
0.260000 0.224000 0.820000
0.480000 0.224000 0.820000
0.700000 0.224000 0.820000
0.920000 0.224000 0.820000
1.000000 0.224000 0.820000
0.040000 0.428000 0.820000
0.260000 0.428000 0.820000
0.480000 0.428000 0.820000
0.700000 0.428000 0.820000
0.920000 0.428000 0.820000
1.000000 0.428000 0.820000
0.040000 0.632000 0.820000
0.260000 0.632000 0.820000
0.480000 0.632000 0.820000
0.700000 0.632000 0.820000
0.920000 0.632000 0.820000
1.000000 0.632000 0.820000
0.040000 0.836000 0.820000
0.260000 0.836000 0.820000
0.480000 0.836000 0.820000
0.700000 0.836000 0.820000
0.920000 0.836000 0.820000
1.000000 0.836000 0.820000
0.040000 1.000000 0.820000
0.260000 1.000000 0.820000
0.480000 1.000000 0.820000
0.700000 1.000000 0.820000
0.920000 1.000000 0.820000
1.000000 1.000000 0.820000
